;FLAVOR:Marlin
;TIME:26190
;Filament used: 18.0847m
;Layer height: 0.16
;MINX:46.763
;MINY:47.2
;MINZ:0.2
;MAXX:172.361
;MAXY:172.8
;MAXZ:13.92
;Generated with Cura_SteamEngine 4.8.0
M140 S45
M105
M190 S45
M104 S200
M105
M109 S200
M82 ;absolute extrusion mode
; Ender 3 Custom Start G-code
G92 E0 ; Reset Extruder
G28 ; Home all axes
G1 Z2.0 F3000 ; Move Z Axis up little to prevent scratching of Heat Bed
G1 X0.1 Y20 Z0.3 F5000.0 ; Move to start position
G1 X0.1 Y200.0 Z0.3 F1500.0 E15 ; Draw the first line
G1 X0.4 Y200.0 Z0.3 F5000.0 ; Move to side a little
G1 X0.4 Y20 Z0.3 F1500.0 E30 ; Draw the second line
G92 E0 ; Reset Extruder
G1 Z2.0 F3000 ; Move Z Axis up little to prevent scratching of Heat Bed
G1 X5 Y20 Z0.3 F5000.0 ; Move over to prevent blob squish
G92 E0
G92 E0
G1 F1500 E-6.5
;LAYER_COUNT:116
;LAYER:0
M107
G0 F6000 X50.527 Y50.391 Z0.2
;TYPE:SKIRT
G1 F1500 E0
G1 F1200 X51.583 Y49.44 E0.04727
G1 X52.196 Y48.942 E0.07353
G1 X52.856 Y48.508 E0.09981
G1 X53.584 Y48.131 E0.12707
G1 X54.107 Y47.894 E0.14617
G1 X54.841 Y47.605 E0.17241
G1 X55.602 Y47.392 E0.19869
G1 X56.38 Y47.257 E0.22496
G1 X57.167 Y47.201 E0.2512
G1 X57.957 Y47.225 E0.27749
G1 X58.155 Y47.23 E0.28407
G1 X58.944 Y47.201 E0.31033
G1 X59.732 Y47.251 E0.3366
G1 X60.511 Y47.381 E0.36286
G1 X61.273 Y47.589 E0.38913
G1 X61.319 Y47.607 E0.39078
G1 X62.056 Y47.398 E0.41626
G1 X62.834 Y47.261 E0.44253
G1 X63.621 Y47.203 E0.46878
G1 X64.411 Y47.225 E0.49506
G1 X64.617 Y47.252 E0.50197
G1 X65.18 Y47.204 E0.52077
G1 X65.969 Y47.218 E0.54701
G1 X66.753 Y47.311 E0.57327
G1 X67.639 Y47.516 E0.60352
G1 X68.814 Y47.861 E0.64425
G1 X69.216 Y47.991 E0.6583
G1 X69.663 Y48.149 E0.67407
G1 X70.394 Y48.449 E0.70035
G1 X71.09 Y48.822 E0.72662
G1 X71.745 Y49.264 E0.7529
G1 X71.906 Y49.405 E0.76002
G1 X73.085 Y49.808 E0.80146
G1 X73.531 Y49.969 E0.81723
G1 X74.259 Y50.276 E0.84351
G1 X74.951 Y50.656 E0.86976
G1 X75.602 Y51.104 E0.89605
G1 X75.734 Y51.22 E0.90189
G1 X75.922 Y51.204 E0.90817
G1 X76.712 Y51.216 E0.93445
G1 X77.496 Y51.309 E0.96071
G1 X78.267 Y51.48 E0.98697
G1 X78.659 Y51.599 E1.0006
G1 X79.214 Y51.784 E1.02006
G1 X79.949 Y52.072 E1.04631
G1 X80.652 Y52.432 E1.07258
G1 X81.315 Y52.861 E1.09885
G1 X81.751 Y53.211 E1.11744
G1 X81.815 Y53.205 E1.11958
G1 X82.605 Y53.214 E1.14586
G1 X83.389 Y53.303 E1.1721
G1 X84.284 Y53.505 E1.20262
G1 X84.901 Y53.683 E1.22398
G1 X85.648 Y53.94 E1.25025
G1 X86.365 Y54.271 E1.27652
G1 X87.044 Y54.673 E1.30276
G1 X87.68 Y55.141 E1.32902
G1 X87.822 Y55.269 E1.33538
G1 X88.577 Y55.205 E1.36058
G1 X89.366 Y55.217 E1.38683
G1 X89.545 Y55.238 E1.39282
G1 X89.815 Y55.211 E1.40185
G1 X90.605 Y55.211 E1.42812
G1 X91.478 Y55.323 E1.4574
G1 X92.252 Y55.286 E1.48317
G1 X93.041 Y55.328 E1.50945
G1 X93.817 Y55.449 E1.53557
G1 X94.376 Y55.567 E1.55457
G1 X95.139 Y55.771 E1.58084
G1 X95.877 Y56.052 E1.60711
G1 X96.583 Y56.406 E1.63338
G1 X97.25 Y56.829 E1.65965
G1 X97.87 Y57.318 E1.68591
G1 X98.125 Y57.564 E1.69769
G1 X99.085 Y57.723 E1.73006
G1 X99.166 Y57.688 E1.73299
G1 X99.92 Y57.451 E1.75928
G1 X100.693 Y57.291 E1.78554
G1 X101.478 Y57.21 E1.81178
G1 X102.524 Y57.227 E1.84658
G1 X103.145 Y57.278 E1.8673
G1 X103.339 Y57.247 E1.87384
G1 X104.128 Y57.201 E1.90012
G1 X104.718 Y57.219 E1.91976
G1 X107.268 Y57.393 E2.00477
G1 X108.052 Y57.487 E2.03103
G1 X108.823 Y57.659 E2.0573
G1 X109.572 Y57.908 E2.08356
G1 X109.71 Y57.97 E2.08859
G1 X109.894 Y57.888 E2.09529
G1 X110.644 Y57.639 E2.12157
G1 X111.415 Y57.468 E2.14784
G1 X112.171 Y57.377 E2.17317
G1 X114.381 Y57.221 E2.24685
G1 X115.17 Y57.206 E2.2731
G1 X115.957 Y57.27 E2.29936
G1 X115.997 Y57.277 E2.30071
G1 X116.565 Y57.228 E2.31967
G1 X117.354 Y57.2 E2.34593
G1 X118.142 Y57.251 E2.3722
G1 X118.921 Y57.382 E2.39847
G1 X119.683 Y57.591 E2.42475
G1 X120.07 Y57.741 E2.43856
G1 X121.179 Y57.54 E2.47604
G1 X121.493 Y57.241 E2.49046
G1 X122.116 Y56.756 E2.51672
G1 X122.786 Y56.337 E2.54301
G1 X123.494 Y55.988 E2.56926
G1 X124.234 Y55.712 E2.59553
G1 X124.9 Y55.534 E2.61846
G1 X125.144 Y55.481 E2.62676
G1 X125.555 Y55.398 E2.64071
G1 X126.336 Y55.281 E2.66697
G1 X127.125 Y55.244 E2.69325
G1 X127.513 Y55.265 E2.70617
G1 X127.699 Y55.237 E2.71242
G1 X128.488 Y55.199 E2.7387
G1 X129.187 Y55.236 E2.76198
G1 X129.701 Y55.201 E2.77911
G1 X130.49 Y55.228 E2.80537
G1 X130.663 Y55.214 E2.81114
G1 X131.453 Y55.207 E2.83742
G1 X131.603 Y55.221 E2.84243
G1 X131.834 Y55.025 E2.85251
G1 X132.486 Y54.579 E2.87878
G1 X133.179 Y54.2 E2.90505
G1 X134.25 Y53.779 E2.94333
G1 X134.635 Y53.662 E2.95671
G1 X135.234 Y53.493 E2.97741
G1 X136.004 Y53.317 E3.00368
G1 X136.788 Y53.22 E3.02996
G1 X137.352 Y53.2 E3.04873
G1 X137.614 Y53.2 E3.05744
G1 X138.258 Y52.723 E3.0841
G1 X138.938 Y52.321 E3.11037
G1 X139.92 Y51.89 E3.14604
G1 X140.336 Y51.744 E3.1607
G1 X140.834 Y51.582 E3.17812
G1 X141.596 Y51.376 E3.20438
G1 X142.376 Y51.248 E3.23066
G1 X143.222 Y51.199 E3.25885
G1 X143.709 Y51.197 E3.27505
G1 X144.263 Y50.79 E3.29791
G1 X144.943 Y50.388 E3.32419
G1 X145.66 Y50.057 E3.35045
G1 X146.101 Y49.895 E3.36608
G1 X146.975 Y49.604 E3.39672
G1 X147.736 Y49.393 E3.42298
G1 X147.958 Y49.355 E3.43047
G1 X148.387 Y48.986 E3.44929
G1 X149.035 Y48.535 E3.47555
G1 X149.726 Y48.151 E3.50185
G1 X150.451 Y47.839 E3.5281
G1 X150.965 Y47.669 E3.5461
G1 X151.482 Y47.517 E3.56403
G1 X152.25 Y47.333 E3.59029
G1 X153.032 Y47.227 E3.61654
G1 X153.822 Y47.201 E3.64283
G1 X154.503 Y47.248 E3.66553
G1 X154.568 Y47.238 E3.66772
G1 X155.357 Y47.201 E3.69399
G1 X156.146 Y47.244 E3.72027
G1 X156.926 Y47.367 E3.74654
G1 X157.689 Y47.568 E3.77278
G1 X157.808 Y47.612 E3.777
G1 X158.344 Y47.446 E3.79566
G1 X159.118 Y47.288 E3.82194
G1 X159.903 Y47.21 E3.84818
G1 X160.693 Y47.212 E3.87445
G1 X160.951 Y47.239 E3.88308
G1 X161.156 Y47.225 E3.88991
G1 X161.946 Y47.2 E3.9162
G1 X162.733 Y47.256 E3.94244
G1 X163.511 Y47.39 E3.9687
G1 X164.272 Y47.602 E3.99498
G1 X165.007 Y47.891 E4.02124
G1 X165.781 Y48.294 E4.05027
G1 X166.545 Y48.748 E4.07983
G1 X167.202 Y49.185 E4.10607
G1 X168.077 Y49.939 E4.14449
G1 X169.626 Y51.489 E4.21737
G1 X170.155 Y52.075 E4.24363
G1 X170.808 Y53.008 E4.28151
G1 X171.26 Y53.766 E4.31086
G1 X171.63 Y54.464 E4.33714
G1 X171.927 Y55.196 E4.36341
G1 X172.149 Y55.954 E4.38968
G1 X172.293 Y56.73 E4.41593
G1 X172.357 Y57.517 E4.44219
G1 X172.325 Y58.505 E4.47507
G1 X172.325 Y58.605 E4.4784
G1 X172.359 Y59.013 E4.49201
G1 X172.346 Y59.802 E4.51826
G1 X172.254 Y60.587 E4.54455
G1 X172.082 Y61.357 E4.57079
G1 X171.952 Y61.749 E4.58453
G1 X172.161 Y62.48 E4.60981
G1 X172.299 Y63.257 E4.63606
G1 X172.359 Y64.045 E4.66234
G1 X172.338 Y64.834 E4.6886
G1 X172.308 Y65.055 E4.69601
G1 X172.345 Y65.382 E4.70696
G1 X172.356 Y66.171 E4.7332
G1 X172.286 Y66.958 E4.75948
G1 X172.048 Y68.067 E4.79721
G1 X171.897 Y68.584 E4.81512
G1 X171.638 Y69.33 E4.84139
G1 X171.304 Y70.045 E4.86764
G1 X170.9 Y70.724 E4.89391
G1 X170.429 Y71.358 E4.92018
G1 X170.28 Y71.521 E4.92753
G1 X170.197 Y72.049 E4.94531
G1 X169.956 Y72.934 E4.97581
G1 X169.77 Y73.487 E4.99522
G1 X169.481 Y74.221 E5.02146
G1 X169.119 Y74.923 E5.04773
G1 X168.687 Y75.585 E5.07402
G1 X168.592 Y75.703 E5.07906
G1 X168.554 Y76.408 E5.10254
G1 X168.432 Y77.188 E5.1288
G1 X168.21 Y78.021 E5.15747
G1 X167.79 Y79.306 E5.20243
G1 X167.725 Y79.498 E5.20918
G1 X167.434 Y80.232 E5.23544
G1 X167.071 Y80.933 E5.26169
G1 X166.638 Y81.594 E5.28797
G1 X166.363 Y81.933 E5.30249
G1 X166.362 Y82.245 E5.31287
G1 X166.319 Y83.033 E5.33912
G1 X166.196 Y83.814 E5.36542
G1 X166.068 Y84.333 E5.38319
G1 X165.866 Y85.044 E5.40778
G1 X165.802 Y85.256 E5.41514
G1 X165.536 Y86 E5.44142
G1 X165.196 Y86.712 E5.46767
G1 X164.786 Y87.387 E5.49393
G1 X164.343 Y87.972 E5.51834
G1 X164.365 Y88.323 E5.53004
G1 X164.336 Y89.113 E5.55633
G1 X164.333 Y89.135 E5.55707
G1 X164.362 Y89.488 E5.56885
G1 X164.347 Y90.277 E5.5951
G1 X164.326 Y90.449 E5.60086
G1 X164.354 Y90.734 E5.61038
G1 X164.35 Y91.523 E5.63663
G1 X164.332 Y91.663 E5.64132
G1 X164.362 Y92.253 E5.66097
G1 X164.322 Y93.042 E5.68725
G1 X164.207 Y93.801 E5.71278
G1 X164.081 Y94.423 E5.73389
G1 X164.003 Y94.77 E5.74572
G1 X163.783 Y95.529 E5.772
G1 X163.487 Y96.261 E5.79826
G1 X163.119 Y96.96 E5.82454
G1 X162.682 Y97.618 E5.85081
G1 X162.181 Y98.228 E5.87706
G1 X162.02 Y98.388 E5.88461
G1 X161.822 Y99.483 E5.92162
G1 X161.884 Y99.628 E5.92687
G1 X162.119 Y100.382 E5.95313
G1 X162.276 Y101.155 E5.97937
G1 X162.354 Y101.941 E6.00564
G1 X162.333 Y103 E6.04087
G1 X162.282 Y103.584 E6.06037
G1 X162.313 Y103.777 E6.06687
G1 X162.36 Y104.565 E6.09312
G1 X162.341 Y105.176 E6.11346
G1 X162.175 Y107.545 E6.19244
G1 X162.08 Y108.329 E6.21871
G1 X161.906 Y109.099 E6.24497
G1 X161.655 Y109.848 E6.27124
G1 X161.619 Y109.928 E6.27416
G1 X161.725 Y110.181 E6.28328
G1 X161.955 Y110.937 E6.30956
G1 X162.107 Y111.711 E6.3358
G1 X162.169 Y112.296 E6.35536
G1 X162.342 Y114.839 E6.44014
G1 X162.356 Y115.628 E6.46639
G1 X162.289 Y116.415 E6.49266
G1 X162.286 Y116.432 E6.49323
G1 X162.336 Y117.04 E6.51352
G1 X162.361 Y117.829 E6.53978
G1 X162.306 Y118.617 E6.56605
G1 X162.171 Y119.395 E6.59231
G1 X161.959 Y120.156 E6.61859
G1 X161.822 Y120.507 E6.63112
G1 X161.996 Y121.481 E6.66403
G1 X162.275 Y121.772 E6.67744
G1 X162.761 Y122.394 E6.70369
G1 X163.182 Y123.062 E6.72995
G1 X163.533 Y123.769 E6.75621
G1 X163.811 Y124.509 E6.7825
G1 X164.001 Y125.216 E6.80685
G1 X164.195 Y126.144 E6.83838
G1 X164.316 Y126.924 E6.86463
G1 X164.358 Y127.713 E6.89091
G1 X164.32 Y128.502 E6.91719
G1 X164.316 Y128.529 E6.91809
G1 X164.361 Y129.318 E6.94438
G1 X164.329 Y130.042 E6.96848
G1 X164.365 Y130.675 E6.98957
G1 X164.329 Y131.464 E7.01584
G1 X164.281 Y131.789 E7.02677
G1 X164.347 Y131.868 E7.03019
G1 X164.787 Y132.524 E7.05646
G1 X165.158 Y133.221 E7.08272
G1 X165.457 Y133.952 E7.10899
G1 X165.594 Y134.381 E7.12397
G1 X166.058 Y135.996 E7.17986
G1 X166.237 Y136.765 E7.20612
G1 X166.338 Y137.548 E7.23238
G1 X166.345 Y137.8 E7.24076
G1 X166.427 Y137.891 E7.24484
G1 X166.894 Y138.527 E7.27108
G1 X167.294 Y139.208 E7.29735
G1 X167.623 Y139.926 E7.32362
G1 X167.779 Y140.352 E7.33871
G1 X167.964 Y140.908 E7.3582
G1 X168.175 Y141.669 E7.38446
G1 X168.308 Y142.448 E7.41075
G1 X168.362 Y143.236 E7.43702
G1 X168.343 Y143.813 E7.45622
G1 X168.795 Y144.436 E7.48182
G1 X169.192 Y145.118 E7.50807
G1 X169.591 Y146.028 E7.54111
G1 X169.778 Y146.546 E7.55943
G1 X170.152 Y147.637 E7.59779
G1 X170.49 Y148.08 E7.61632
G1 X170.903 Y148.753 E7.64259
G1 X171.245 Y149.464 E7.66883
G1 X171.405 Y149.877 E7.68356
G1 X171.567 Y150.333 E7.69965
G1 X171.703 Y150.754 E7.71437
G1 X172.047 Y151.93 E7.75512
G1 X172.23 Y152.698 E7.78138
G1 X172.335 Y153.481 E7.80766
G1 X172.36 Y154.27 E7.83391
G1 X172.311 Y154.955 E7.85675
G1 X172.336 Y155.144 E7.86309
G1 X172.359 Y155.933 E7.88935
G1 X172.302 Y156.721 E7.91563
G1 X172.166 Y157.499 E7.94189
G1 X171.953 Y158.253 E7.96795
G1 X172.118 Y158.786 E7.98651
G1 X172.275 Y159.559 E8.01275
G1 X172.353 Y160.345 E8.03902
G1 X172.351 Y161.135 E8.06529
G1 X172.317 Y161.46 E8.07616
G1 X172.339 Y161.63 E8.08186
G1 X172.361 Y162.419 E8.10812
G1 X172.302 Y163.207 E8.1344
G1 X172.165 Y163.984 E8.16064
G1 X171.949 Y164.744 E8.18692
G1 X171.668 Y165.455 E8.21235
G1 X171.431 Y165.978 E8.23144
G1 X171.069 Y166.68 E8.25771
G1 X170.638 Y167.342 E8.28399
G1 X170.123 Y167.978 E8.31121
G1 X169.174 Y169.032 E8.35838
G1 X168.597 Y169.609 E8.38552
G1 X167.541 Y170.56 E8.43279
G1 X166.928 Y171.058 E8.45905
G1 X166.268 Y171.492 E8.48533
G1 X165.534 Y171.871 E8.5128
G1 X165.012 Y172.107 E8.53186
G1 X164.277 Y172.396 E8.55812
G1 X163.517 Y172.609 E8.58437
G1 X162.739 Y172.743 E8.61063
G1 X161.951 Y172.799 E8.63691
G1 X161.162 Y172.774 E8.66316
G1 X160.99 Y172.768 E8.66889
G1 X160.201 Y172.8 E8.69515
G1 X159.413 Y172.751 E8.72141
G1 X158.634 Y172.623 E8.74767
G1 X157.871 Y172.417 E8.77395
G1 X157.809 Y172.393 E8.77616
G1 X157.067 Y172.603 E8.80181
G1 X156.289 Y172.74 E8.82809
G1 X155.502 Y172.798 E8.85433
G1 X154.712 Y172.776 E8.88062
G1 X154.502 Y172.749 E8.88766
G1 X153.945 Y172.796 E8.90625
G1 X153.156 Y172.782 E8.9325
G1 X152.372 Y172.689 E8.95876
G1 X151.487 Y172.485 E8.98897
G1 X150.311 Y172.14 E9.02973
G1 X149.908 Y172.009 E9.04382
G1 X149.461 Y171.851 E9.05959
G1 X148.73 Y171.551 E9.08587
G1 X148.034 Y171.178 E9.11214
G1 X147.379 Y170.736 E9.13842
G1 X147.216 Y170.594 E9.14561
G1 X145.885 Y170.137 E9.19241
G1 X145.606 Y170.036 E9.20228
G1 X144.878 Y169.73 E9.22855
G1 X144.185 Y169.352 E9.2548
G1 X143.533 Y168.906 E9.28108
G1 X143.403 Y168.793 E9.28681
G1 X143.255 Y168.801 E9.29174
G1 X142.467 Y168.762 E9.31798
G1 X141.686 Y168.643 E9.34425
G1 X140.793 Y168.404 E9.375
G1 X140.051 Y168.158 E9.401
G1 X139.712 Y168.043 E9.41291
G1 X138.978 Y167.751 E9.43918
G1 X138.277 Y167.387 E9.46545
G1 X137.617 Y166.954 E9.49171
G1 X137.004 Y166.457 E9.51795
G1 X136.785 Y166.236 E9.5283
G1 X135.864 Y165.966 E9.56022
G1 X134.368 Y165.513 E9.61221
G1 X134.165 Y165.464 E9.61916
G1 X131.926 Y164.853 E9.69635
G1 X131.465 Y164.709 E9.71241
G1 X131.335 Y164.733 E9.71681
G1 X130.548 Y164.799 E9.74308
G1 X129.759 Y164.786 E9.76932
G1 X129.584 Y164.761 E9.7752
G1 X129.189 Y164.795 E9.78839
G1 X128.4 Y164.781 E9.81464
G1 X127.317 Y164.631 E9.851
G1 X124.322 Y163.999 E9.95281
G1 X123.558 Y163.797 E9.97909
G1 X122.819 Y163.519 E10.00535
G1 X122.112 Y163.167 E10.03162
G1 X121.444 Y162.746 E10.05788
G1 X121.048 Y162.437 E10.07459
G1 X120.044 Y162.275 E10.10841
G1 X119.96 Y162.311 E10.11145
G1 X119.207 Y162.549 E10.13772
G1 X118.434 Y162.709 E10.16398
G1 X117.648 Y162.789 E10.19025
G1 X116.601 Y162.774 E10.22508
G1 X115.975 Y162.722 E10.24597
G1 X115.785 Y162.753 E10.25238
G1 X114.996 Y162.799 E10.27866
G1 X114.406 Y162.781 E10.29829
G1 X111.856 Y162.607 E10.38331
G1 X111.072 Y162.513 E10.40957
G1 X110.301 Y162.341 E10.43584
G1 X109.552 Y162.092 E10.46209
G1 X109.406 Y162.026 E10.46742
G1 X109.211 Y162.114 E10.47454
G1 X108.462 Y162.362 E10.50078
G1 X107.691 Y162.534 E10.52705
G1 X106.931 Y162.625 E10.55251
G1 X104.736 Y162.779 E10.6257
G1 X103.946 Y162.794 E10.65198
G1 X103.159 Y162.73 E10.67824
G1 X103.121 Y162.723 E10.67953
G1 X102.555 Y162.772 E10.69842
G1 X101.766 Y162.8 E10.72468
G1 X100.978 Y162.749 E10.75094
G1 X100.199 Y162.618 E10.77722
G1 X99.438 Y162.409 E10.80347
G1 X99.047 Y162.258 E10.81741
G1 X97.95 Y162.455 E10.85448
G1 X97.634 Y162.757 E10.86901
G1 X97.011 Y163.241 E10.89525
G1 X96.342 Y163.661 E10.92153
G1 X95.634 Y164.01 E10.94778
G1 X94.894 Y164.286 E10.97405
G1 X94.224 Y164.466 E10.99712
G1 X93.984 Y164.518 E11.00529
G1 X93.584 Y164.599 E11.01887
G1 X92.803 Y164.716 E11.04513
G1 X92.014 Y164.754 E11.0714
G1 X91.61 Y164.732 E11.08486
G1 X91.396 Y164.764 E11.09206
G1 X90.607 Y164.799 E11.11833
G1 X89.955 Y164.762 E11.14005
G1 X89.41 Y164.797 E11.15821
G1 X88.621 Y164.769 E11.18447
G1 X88.602 Y164.766 E11.18511
G1 X88.226 Y164.797 E11.19766
G1 X87.517 Y164.784 E11.22124
G1 X87.282 Y164.982 E11.23146
G1 X86.63 Y165.427 E11.25772
G1 X85.937 Y165.804 E11.28396
G1 X84.856 Y166.227 E11.32257
G1 X84.507 Y166.332 E11.33469
G1 X83.889 Y166.506 E11.35604
G1 X83.119 Y166.681 E11.38231
G1 X82.335 Y166.778 E11.40858
G1 X81.864 Y166.797 E11.42426
G1 X81.51 Y166.801 E11.43603
G1 X80.872 Y167.272 E11.46241
G1 X80.193 Y167.674 E11.48865
G1 X79.169 Y168.122 E11.52583
G1 X78.776 Y168.259 E11.53967
G1 X77.583 Y168.648 E11.58141
G1 X76.821 Y168.854 E11.60766
G1 X76.042 Y168.983 E11.63392
G1 X75.254 Y169.031 E11.66018
G1 X74.849 Y169.328 E11.67689
G1 X74.168 Y169.728 E11.70315
G1 X73.45 Y170.057 E11.72942
G1 X73.079 Y170.194 E11.74258
G1 X72.521 Y170.384 E11.76218
G1 X71.762 Y170.6 E11.78843
G1 X71.076 Y170.723 E11.81161
G1 X70.737 Y171.014 E11.82647
G1 X70.089 Y171.465 E11.85273
G1 X69.398 Y171.849 E11.87902
G1 X68.673 Y172.161 E11.90527
G1 X68.155 Y172.332 E11.92342
G1 X67.637 Y172.484 E11.94137
G1 X66.869 Y172.668 E11.96764
G1 X66.087 Y172.773 E11.99388
G1 X65.297 Y172.799 E12.02017
G1 X64.628 Y172.752 E12.04248
G1 X64.55 Y172.764 E12.0451
G1 X63.761 Y172.8 E12.07137
G1 X62.973 Y172.756 E12.09762
G1 X62.193 Y172.633 E12.12388
G1 X61.429 Y172.432 E12.15016
G1 X61.312 Y172.388 E12.15432
G1 X60.783 Y172.553 E12.17275
