;FLAVOR:Marlin
;TIME:3152
;Filament used: 2.17535m
;Layer height: 0.16
;MINX:74.464
;MINY:74.461
;MINZ:0.2
;MAXX:145.537
;MAXY:145.539
;MAXZ:6.92
;Generated with Cura_SteamEngine 4.8.0
M140 S45
M105
M190 S45
M104 S200
M105
M109 S200
M82 ;absolute extrusion mode
; Ender 3 Custom Start G-code
G92 E0 ; Reset Extruder
G28 ; Home all axes
G1 Z2.0 F3000 ; Move Z Axis up little to prevent scratching of Heat Bed
G1 X0.1 Y20 Z0.3 F5000.0 ; Move to start position
G1 X0.1 Y200.0 Z0.3 F1500.0 E15 ; Draw the first line
G1 X0.4 Y200.0 Z0.3 F5000.0 ; Move to side a little
G1 X0.4 Y20 Z0.3 F1500.0 E30 ; Draw the second line
G92 E0 ; Reset Extruder
G1 Z2.0 F3000 ; Move Z Axis up little to prevent scratching of Heat Bed
G1 X5 Y20 Z0.3 F5000.0 ; Move over to prevent blob squish
G92 E0
G92 E0
G1 F1500 E-6.5
;LAYER_COUNT:58
;LAYER:0
M107
G0 F6000 X77.667 Y77.983 Z0.2
;TYPE:SKIRT
G1 F1500 E0
G1 F1200 X77.982 Y77.668 E0.01482
G1 X78.321 Y77.348 E0.03032
G1 X78.684 Y77.026 E0.04646
G1 X79.3 Y76.532 E0.07272
G1 X79.964 Y76.104 E0.099
G1 X80.626 Y75.763 E0.12377
G1 X81.267 Y75.471 E0.14719
G1 X82.002 Y75.18 E0.17349
G1 X82.684 Y74.984 E0.19709
G1 X83.928 Y74.686 E0.23963
G1 X84.704 Y74.541 E0.26589
G1 X85.491 Y74.475 E0.29216
G1 X86.281 Y74.489 E0.31844
G1 X87.152 Y74.599 E0.34764
G1 X87.783 Y74.715 E0.36898
G1 X88.048 Y74.7 E0.3778
G1 X88.837 Y74.736 E0.40407
G1 X89.618 Y74.852 E0.43034
G1 X90.274 Y75.013 E0.4528
G1 X90.685 Y75.133 E0.46704
G1 X91.093 Y75.264 E0.48129
G1 X91.266 Y75.325 E0.4874
G1 X91.996 Y75.625 E0.51365
G1 X92.693 Y75.997 E0.53992
G1 X93.06 Y76.244 E0.55464
G1 X93.374 Y76.358 E0.56575
G1 X93.966 Y76.617 E0.58724
G1 X96.007 Y77.297 E0.65879
G1 X97.518 Y77.809 E0.71185
G1 X98.666 Y78.137 E0.75157
G1 X100.576 Y78.69 E0.8177
G1 X101.972 Y78.991 E0.8652
G1 X102.735 Y79.196 E0.89148
G1 X103.473 Y79.478 E0.91775
G1 X103.964 Y79.724 E0.93602
G1 X104.545 Y79.836 E0.9557
G1 X104.811 Y79.883 E0.96468
G1 X104.854 Y79.872 E0.96616
G1 X105.634 Y79.748 E0.99243
G1 X106.422 Y79.703 E1.01868
G1 X107.079 Y79.727 E1.04055
G1 X109.28 Y79.899 E1.11398
G1 X110.063 Y80 E1.14023
G1 X110.137 Y80.017 E1.14276
G1 X110.387 Y79.962 E1.15127
G1 X111.038 Y79.881 E1.17309
G1 X112.923 Y79.726 E1.236
G1 X113.712 Y79.701 E1.26225
G1 X114.5 Y79.757 E1.28853
G1 X114.791 Y79.807 E1.29835
G1 X115.392 Y79.51 E1.32065
G1 X116.131 Y79.232 E1.34691
G1 X116.728 Y79.068 E1.3675
G1 X117.079 Y78.989 E1.37947
G1 X117.714 Y78.86 E1.40102
G1 X118.495 Y78.742 E1.42729
G1 X119.284 Y78.704 E1.45356
G1 X119.706 Y78.726 E1.46762
G1 X119.771 Y78.722 E1.46978
G1 X121.344 Y78.234 E1.52456
G1 X121.541 Y78.176 E1.53139
G1 X122.141 Y78.007 E1.55212
G1 X122.708 Y77.878 E1.57146
G1 X122.857 Y77.789 E1.57724
G1 X123.915 Y77.325 E1.61566
G1 X124.227 Y77.217 E1.62664
G1 X124.656 Y77.077 E1.64165
G1 X125.344 Y76.904 E1.66525
G1 X128.653 Y75.765 E1.78164
G1 X128.726 Y75.722 E1.78446
G1 X129.446 Y75.396 E1.81075
G1 X129.994 Y75.204 E1.83006
G1 X130.201 Y75.14 E1.83727
G1 X130.966 Y74.945 E1.86352
G1 X131.154 Y74.916 E1.86985
G1 X132.67 Y74.613 E1.92127
G1 X133.452 Y74.497 E1.94757
G1 X134.24 Y74.461 E1.9738
G1 X135.029 Y74.505 E2.00008
G1 X135.989 Y74.669 E2.03248
G1 X136.141 Y74.705 E2.03767
G1 X136.858 Y74.722 E2.06153
G1 X137.641 Y74.821 E2.08778
G1 X138.411 Y74.999 E2.11406
G1 X139.158 Y75.253 E2.1403
G1 X139.876 Y75.582 E2.16657
G1 X140.238 Y75.783 E2.18034
G1 X140.465 Y75.917 E2.18911
G1 X141.124 Y76.352 E2.21537
G1 X142.019 Y77.122 E2.25464
G1 X142.884 Y77.988 E2.29535
G1 X143.413 Y78.574 E2.32161
G1 X144.082 Y79.535 E2.36056
G1 X144.216 Y79.762 E2.36932
G1 X144.582 Y80.461 E2.39557
G1 X144.876 Y81.194 E2.42183
G1 X145.095 Y81.953 E2.44811
G1 X145.235 Y82.73 E2.47437
G1 X145.296 Y83.518 E2.50066
G1 X145.289 Y83.828 E2.51097
G1 X145.33 Y84.003 E2.51695
G1 X145.473 Y84.78 E2.54322
G1 X145.537 Y85.567 E2.56949
G1 X145.52 Y86.357 E2.59577
G1 X145.386 Y87.344 E2.6289
G1 X145.024 Y89.137 E2.68974
G1 X144.834 Y89.882 E2.71531
G1 X144.799 Y89.996 E2.71927
G1 X144.53 Y90.738 E2.74552
G1 X144.21 Y91.4 E2.76998
G1 X143.104 Y94.651 E2.88419
G1 X142.921 Y95.349 E2.9082
G1 X142.746 Y95.885 E2.92695
G1 X142.696 Y96.03 E2.93205
G1 X142.401 Y96.762 E2.9583
G1 X142.132 Y97.274 E2.97754
G1 X142.126 Y97.315 E2.97891
G1 X141.991 Y97.867 E2.99781
G1 X141.822 Y98.465 E3.01848
G1 X141.766 Y98.653 E3.02501
G1 X141.286 Y100.201 E3.07891
G1 X141.279 Y100.297 E3.08211
G1 X141.3 Y100.726 E3.0964
G1 X141.259 Y101.515 E3.12268
G1 X141.143 Y102.271 E3.14812
G1 X141.01 Y102.924 E3.17028
G1 X140.926 Y103.293 E3.18287
G1 X140.704 Y104.05 E3.20911
G1 X140.407 Y104.782 E3.23538
G1 X140.186 Y105.199 E3.25108
G1 X140.252 Y105.612 E3.26499
G1 X140.298 Y106.4 E3.29124
G1 X140.272 Y107.097 E3.31444
G1 X140.108 Y109.093 E3.38105
G1 X140.003 Y109.875 E3.40729
G1 X139.975 Y109.991 E3.41126
G1 X140.021 Y110.195 E3.41822
G1 X140.105 Y110.864 E3.44064
G1 X140.274 Y112.922 E3.50932
G1 X140.299 Y113.711 E3.53558
G1 X140.243 Y114.499 E3.56185
G1 X140.171 Y114.914 E3.57586
G1 X140.349 Y115.329 E3.59088
G1 X140.656 Y116.384 E3.62743
G1 X141.313 Y119.432 E3.73113
G1 X141.87 Y121.357 E3.79778
G1 X142.191 Y122.481 E3.83666
G1 X142.714 Y124.03 E3.89104
G1 X143.377 Y126.022 E3.96087
G1 X143.642 Y126.628 E3.98287
G1 X143.743 Y126.906 E3.9927
G1 X144.146 Y127.555 E4.01811
G1 X144.492 Y128.265 E4.04438
G1 X144.67 Y128.721 E4.06066
G1 X144.731 Y128.893 E4.06673
G1 X144.869 Y129.319 E4.08163
G1 X144.989 Y129.731 E4.0959
G1 X145.171 Y130.499 E4.12215
G1 X145.275 Y131.282 E4.14842
G1 X145.298 Y132.071 E4.17468
G1 X145.287 Y132.229 E4.17994
G1 X145.401 Y132.856 E4.20114
G1 X145.503 Y133.639 E4.2274
G1 X145.525 Y134.428 E4.25366
G1 X145.467 Y135.216 E4.27994
G1 X145.318 Y136.048 E4.30805
G1 X145.024 Y137.292 E4.35056
G1 X144.804 Y138.05 E4.37682
G1 X144.527 Y138.741 E4.40158
G1 X144.233 Y139.384 E4.42509
G1 X143.868 Y140.085 E4.45138
G1 X143.435 Y140.745 E4.47763
G1 X142.968 Y141.324 E4.50237
G1 X142.647 Y141.685 E4.51844
G1 X142.333 Y142.017 E4.53364
G1 X142.022 Y142.328 E4.54827
G1 X141.705 Y142.629 E4.56281
G1 X141.338 Y142.957 E4.57918
G1 X140.723 Y143.453 E4.60546
G1 X140.061 Y143.884 E4.63173
G1 X139.373 Y144.24 E4.65749
G1 X138.734 Y144.531 E4.68085
G1 X137.999 Y144.821 E4.70713
G1 X137.291 Y145.024 E4.73163
G1 X136.04 Y145.319 E4.77438
G1 X135.263 Y145.461 E4.80065
G1 X134.476 Y145.524 E4.82691
G1 X133.687 Y145.507 E4.85315
G1 X132.848 Y145.4 E4.88129
G1 X132.219 Y145.285 E4.90255
G1 X131.952 Y145.3 E4.91145
G1 X131.163 Y145.264 E4.93772
G1 X130.382 Y145.148 E4.96398
G1 X129.726 Y144.987 E4.98644
G1 X129.315 Y144.867 E5.00068
G1 X128.907 Y144.736 E5.01494
G1 X128.734 Y144.675 E5.02104
G1 X128.004 Y144.375 E5.04729
G1 X127.307 Y144.003 E5.07357
G1 X126.941 Y143.756 E5.08825
G1 X126.669 Y143.658 E5.09787
G1 X125.941 Y143.351 E5.12415
G1 X125.248 Y142.973 E5.1504
G1 X124.774 Y142.648 E5.16952
G1 X123.288 Y142.15 E5.22164
G1 X122.653 Y141.944 E5.24385
G1 X122.003 Y141.748 E5.26643
G1 X120.831 Y141.411 E5.30699
G1 X120.394 Y141.292 E5.32205
G1 X119.751 Y141.287 E5.34344
G1 X118.966 Y141.201 E5.3697
G1 X118.549 Y141.122 E5.38382
G1 X118.015 Y141.006 E5.402
G1 X117.253 Y140.8 E5.42825
G1 X116.516 Y140.517 E5.45451
G1 X116.028 Y140.272 E5.47267
G1 X115.523 Y140.173 E5.48978
G1 X115.202 Y140.117 E5.50062
G1 X115.16 Y140.128 E5.50207
G1 X114.38 Y140.253 E5.52834
G1 X113.592 Y140.298 E5.55459
G1 X112.905 Y140.272 E5.57746
G1 X110.905 Y140.108 E5.6442
G1 X110.122 Y140.004 E5.67047
G1 X109.949 Y139.963 E5.67639
G1 X109.632 Y140.033 E5.68718
G1 X108.966 Y140.117 E5.70951
G1 X107.081 Y140.273 E5.77242
G1 X106.292 Y140.299 E5.79868
G1 X105.504 Y140.244 E5.82495
G1 X105.208 Y140.193 E5.83494
G1 X104.61 Y140.49 E5.85715
G1 X103.871 Y140.767 E5.8834
G1 X103.272 Y140.932 E5.90406
G1 X102.923 Y141.01 E5.91596
G1 X102.289 Y141.139 E5.93747
G1 X101.508 Y141.257 E5.96375
G1 X100.72 Y141.296 E5.98999
G1 X100.293 Y141.274 E6.00421
G1 X100.225 Y141.279 E6.00648
G1 X98.654 Y141.766 E6.06118
G1 X98.459 Y141.824 E6.06795
G1 X97.859 Y141.993 E6.08868
G1 X97.292 Y142.122 E6.10802
G1 X97.143 Y142.211 E6.11379
G1 X96.085 Y142.675 E6.15222
G1 X95.76 Y142.787 E6.16365
G1 X95.35 Y142.92 E6.17799
G1 X94.668 Y143.1 E6.20145
G1 X91.385 Y144.215 E6.31677
G1 X90.802 Y144.503 E6.33839
G1 X90.01 Y144.796 E6.36648
G1 X89.806 Y144.859 E6.37358
G1 X89.04 Y145.053 E6.39986
G1 X88.868 Y145.078 E6.40564
G1 X87.336 Y145.386 E6.45762
G1 X86.555 Y145.502 E6.48388
G1 X85.766 Y145.539 E6.51015
G1 X84.978 Y145.496 E6.5364
G1 X84.009 Y145.331 E6.56909
G1 X83.857 Y145.295 E6.57429
G1 X83.142 Y145.278 E6.59807
G1 X82.359 Y145.179 E6.62432
G1 X81.589 Y145.001 E6.65061
G1 X80.842 Y144.747 E6.67685
G1 X80.124 Y144.418 E6.70312
G1 X79.74 Y144.204 E6.71774
G1 X79.513 Y144.069 E6.72653
G1 X78.856 Y143.632 E6.75277
G1 X77.988 Y142.884 E6.79088
G1 X77.122 Y142.019 E6.83159
G1 X76.592 Y141.433 E6.85787
G1 X76.124 Y140.797 E6.88413
G1 X75.904 Y140.443 E6.898
G1 X75.771 Y140.216 E6.90675
G1 X75.407 Y139.515 E6.93302
G1 X75.115 Y138.781 E6.95929
G1 X74.9 Y138.022 E6.98553
G1 X74.762 Y137.244 E7.01181
G1 X74.703 Y136.457 E7.03806
G1 X74.711 Y136.164 E7.04781
G1 X74.665 Y135.966 E7.05457
G1 X74.525 Y135.189 E7.08083
G1 X74.464 Y134.401 E7.10712
G1 X74.483 Y133.612 E7.13337
G1 X74.613 Y132.657 E7.16542
G1 X74.968 Y130.888 E7.22543
G1 X75.178 Y130.074 E7.25339
G1 X75.22 Y129.941 E7.25803
G1 X75.496 Y129.201 E7.2843
G1 X75.784 Y128.617 E7.30596
G1 X76.9 Y125.335 E7.42126
G1 X77.077 Y124.657 E7.44456
G1 X77.254 Y124.115 E7.46353
G1 X77.304 Y123.97 E7.46863
G1 X77.599 Y123.238 E7.49488
G1 X77.868 Y122.726 E7.51411
G1 X77.874 Y122.685 E7.51549
G1 X78.009 Y122.133 E7.53439
G1 X78.178 Y121.535 E7.55506
G1 X78.234 Y121.347 E7.56158
G1 X78.714 Y119.799 E7.61549
G1 X78.721 Y119.703 E7.61869
G1 X78.7 Y119.283 E7.63268
G1 X78.74 Y118.495 E7.65892
G1 X78.857 Y117.729 E7.68469
G1 X78.99 Y117.076 E7.70686
G1 X79.058 Y116.771 E7.71725
G1 X79.273 Y116.011 E7.74352
G1 X79.565 Y115.277 E7.76979
G1 X79.806 Y114.814 E7.78716
G1 X79.721 Y114.136 E7.80988
G1 X79.703 Y113.347 E7.83613
G1 X79.726 Y112.922 E7.85029
G1 X79.895 Y110.864 E7.91897
G1 X80 Y110.081 E7.94524
G1 X80.008 Y110.049 E7.94634
G1 X79.943 Y109.699 E7.95818
G1 X79.899 Y109.279 E7.97223
G1 X79.726 Y107.064 E8.04612
G1 X79.704 Y106.275 E8.07237
G1 X79.762 Y105.487 E8.09865
G1 X79.832 Y105.093 E8.11196
G1 X79.66 Y104.694 E8.12642
G1 X79.343 Y103.611 E8.16395
G1 X78.875 Y101.44 E8.23781
G1 X78.748 Y100.66 E8.2641
G1 X78.7 Y99.872 E8.29036
G1 X78.711 Y99.611 E8.29904
G1 X78.614 Y99.256 E8.31128
G1 X78.561 Y99.075 E8.31756
G1 X78.377 Y98.307 E8.34382
G1 X78.367 Y98.234 E8.34627
G1 X77.608 Y95.994 E8.42494
G1 X77.355 Y95.235 E8.45155
G1 X77.243 Y95.088 E8.45769
G1 X76.83 Y94.415 E8.48396
G1 X76.345 Y93.337 E8.52327
G1 X76.256 Y93.093 E8.53191
G1 X75.854 Y92.445 E8.55728
G1 X75.508 Y91.735 E8.58354
G1 X75.325 Y91.266 E8.60029
G1 X75.264 Y91.093 E8.60639
G1 X75.133 Y90.685 E8.62064
G1 X75.013 Y90.274 E8.63488
G1 X74.83 Y89.506 E8.66114
G1 X74.726 Y88.723 E8.68741
G1 X74.702 Y87.934 E8.71367
G1 X74.713 Y87.772 E8.71907
G1 X74.599 Y87.144 E8.7403
G1 X74.497 Y86.361 E8.76656
G1 X74.475 Y85.572 E8.79281
G1 X74.533 Y84.784 E8.81909
G1 X74.682 Y83.952 E8.84721
G1 X74.976 Y82.708 E8.88972
G1 X75.196 Y81.95 E8.91597
G1 X75.473 Y81.259 E8.94073
G1 X75.767 Y80.616 E8.96425
G1 X76.132 Y79.915 E8.99054
G1 X76.565 Y79.255 E9.01679
G1 X77.032 Y78.676 E9.04153
G1 X77.353 Y78.315 E9.0576
G1 X77.667 Y77.983 E9.0728
G0 F6000 X77.949 Y78.265
G1 F1200 X78.264 Y77.95 E9.08761
G1 X78.586 Y77.647 E9.10232
G1 X78.949 Y77.325 E9.11846
G1 X79.551 Y76.845 E9.14407
G1 X80.198 Y76.43 E9.16963
G1 X80.792 Y76.127 E9.19181
G1 X81.433 Y75.835 E9.21524
G1 X82.149 Y75.553 E9.24083
G1 X82.777 Y75.373 E9.26256
G1 X84.021 Y75.075 E9.30511
G1 X84.777 Y74.935 E9.33068
G1 X85.544 Y74.874 E9.35627
G1 X86.313 Y74.893 E9.38186
G1 X87.08 Y74.992 E9.40758
G1 X87.739 Y75.113 E9.42986
G1 X87.841 Y75.104 E9.43327
G1 X88.61 Y75.118 E9.45885
G1 X89.373 Y75.212 E9.48442
G1 X90.162 Y75.397 E9.51137
G1 X90.573 Y75.517 E9.52561
G1 X90.96 Y75.641 E9.53913
G1 X91.133 Y75.702 E9.54523
G1 X91.844 Y75.995 E9.57081
G1 X92.521 Y76.361 E9.5964
G1 X92.876 Y76.603 E9.61069
G1 X93.237 Y76.734 E9.62347
G1 X93.839 Y76.997 E9.64532
G1 X95.878 Y77.676 E9.7168
G1 X97.399 Y78.191 E9.77021
G1 X98.554 Y78.521 E9.81016
G1 X100.477 Y79.078 E9.87675
G1 X101.888 Y79.382 E9.92475
G1 X102.631 Y79.583 E9.95035
G1 X103.348 Y79.86 E9.97592
G1 X103.829 Y80.106 E9.99389
G1 X104.478 Y80.23 E10.01587
G1 X104.826 Y80.292 E10.02762
G1 X105.488 Y80.169 E10.05002
G1 X106.255 Y80.106 E10.07561
G1 X107.048 Y80.125 E10.102
G1 X109.249 Y80.297 E10.17543
G1 X110.011 Y80.397 E10.20099
G1 X110.13 Y80.425 E10.20505
G1 X110.286 Y80.387 E10.21039
G1 X111.071 Y80.28 E10.23674
G1 X112.956 Y80.125 E10.29965
G1 X113.724 Y80.102 E10.32521
G1 X114.491 Y80.159 E10.35079
G1 X114.865 Y80.226 E10.36342
G1 X115.378 Y79.954 E10.38274
G1 X116.091 Y79.667 E10.4083
G1 X116.819 Y79.457 E10.4335
G1 X117.159 Y79.381 E10.44509
G1 X117.794 Y79.252 E10.46664
G1 X118.554 Y79.138 E10.4922
G1 X119.323 Y79.104 E10.5178
G1 X119.708 Y79.127 E10.53063
G1 X119.843 Y79.119 E10.53513
G1 X121.463 Y78.616 E10.59155
G1 X121.65 Y78.561 E10.59803
G1 X122.25 Y78.392 E10.61876
G1 X122.862 Y78.253 E10.63964
G1 X123.294 Y78.016 E10.65603
G1 X124.048 Y77.702 E10.68319
G1 X124.351 Y77.597 E10.69386
G1 X124.78 Y77.457 E10.70887
G1 X125.471 Y77.283 E10.73257
G1 X128.822 Y76.129 E10.85044
G1 X128.927 Y76.068 E10.85448
G1 X129.629 Y75.754 E10.88006
G1 X130.112 Y75.586 E10.89707
G1 X130.319 Y75.522 E10.90428
G1 X131.065 Y75.333 E10.92987
G1 X131.246 Y75.306 E10.93596
G1 X132.749 Y75.005 E10.98694
G1 X133.51 Y74.893 E11.01253
G1 X134.278 Y74.861 E11.03809
G1 X135.046 Y74.909 E11.06369
G1 X135.897 Y75.058 E11.09242
G1 X136.124 Y75.111 E11.10017
G1 X136.539 Y75.105 E11.11398
G1 X137.305 Y75.172 E11.13955
G1 X138.06 Y75.319 E11.16513
G1 X138.796 Y75.543 E11.19072
G1 X139.504 Y75.843 E11.2163
G1 X140.035 Y76.127 E11.23633
G1 X140.262 Y76.261 E11.24509
G1 X140.903 Y76.686 E11.27067
G1 X141.736 Y77.404 E11.30725
G1 X142.601 Y78.27 E11.34796
G1 X143.115 Y78.842 E11.37354
G1 X143.738 Y79.738 E11.40984
G1 X143.872 Y79.965 E11.4186
G1 X144.228 Y80.647 E11.44419
G1 X144.511 Y81.362 E11.46977
G1 X144.719 Y82.103 E11.49537
G1 X144.848 Y82.861 E11.52094
G1 X144.898 Y83.628 E11.5465
G1 X144.889 Y83.875 E11.55472
G1 X144.941 Y84.096 E11.56228
G1 X145.079 Y84.852 E11.58784
G1 X145.138 Y85.619 E11.61342
G1 X145.117 Y86.388 E11.63901
G1 X144.994 Y87.264 E11.66843
G1 X144.632 Y89.057 E11.72927
G1 X144.452 Y89.765 E11.75357
G1 X144.417 Y89.879 E11.75753
G1 X144.153 Y90.601 E11.7831
G1 X143.845 Y91.234 E11.80652
G1 X142.719 Y94.543 E11.92277
G1 X142.54 Y95.226 E11.94625
G1 X142.368 Y95.754 E11.96472
G1 X142.318 Y95.899 E11.96983
G1 X142.03 Y96.612 E11.9954
G1 X141.746 Y97.147 E12.01555
G1 X141.726 Y97.274 E12.01982
G1 X141.606 Y97.758 E12.03641
G1 X141.437 Y98.356 E12.05708
G1 X141.384 Y98.535 E12.06329
G1 X140.884 Y100.148 E12.11945
G1 X140.898 Y100.536 E12.13237
G1 X140.876 Y101.305 E12.15795
G1 X140.751 Y102.191 E12.18771
G1 X140.618 Y102.844 E12.20988
G1 X140.537 Y103.2 E12.22202
G1 X140.32 Y103.938 E12.24761
G1 X140.027 Y104.649 E12.27318
G1 X139.768 Y105.13 E12.29135
G1 X139.831 Y105.467 E12.30276
G1 X139.895 Y106.234 E12.32836
G1 X139.873 Y107.064 E12.35597
G1 X139.709 Y109.06 E12.42258
G1 X139.606 Y109.822 E12.44816
G1 X139.568 Y109.981 E12.4536
G1 X139.596 Y110.095 E12.4575
G1 X139.706 Y110.896 E12.48439
G1 X139.875 Y112.954 E12.55307
G1 X139.898 Y113.723 E12.57866
G1 X139.841 Y114.49 E12.60424
G1 X139.758 Y114.953 E12.61989
G1 X139.789 Y115.014 E12.62216
G1 X140.065 Y115.732 E12.64775
G1 X140.265 Y116.469 E12.67314
G1 X140.925 Y119.528 E12.77723
G1 X141.485 Y121.467 E12.84436
G1 X141.806 Y122.593 E12.8833
G1 X142.335 Y124.157 E12.93821
G1 X143.004 Y126.165 E13.00861
G1 X143.266 Y126.764 E13.03035
G1 X143.393 Y127.116 E13.0428
G1 X143.702 Y127.584 E13.06145
G1 X144.056 Y128.267 E13.08704
G1 X144.293 Y128.855 E13.10812
G1 X144.354 Y129.027 E13.11419
G1 X144.485 Y129.431 E13.12832
G1 X144.605 Y129.843 E13.14259
