;FLAVOR:Marlin
;TIME:8708
;Filament used: 7.08221m
;Layer height: 0.16
;MINX:54.194
;MINY:54.235
;MINZ:0.6
;MAXX:165.765
;MAXY:165.809
;MAXZ:13.92
;Generated with Cura_SteamEngine 4.8.0
M140 S45
M105
M190 S45
M104 S200
M105
M109 S200
M82 ;absolute extrusion mode
; Ender 3 Custom Start G-code
G92 E0 ; Reset Extruder
G28 ; Home all axes
G1 Z2.0 F3000 ; Move Z Axis up little to prevent scratching of Heat Bed
G1 X0.1 Y20 Z0.3 F5000.0 ; Move to start position
G1 X0.1 Y200.0 Z0.3 F1500.0 E15 ; Draw the first line
G1 X0.4 Y200.0 Z0.3 F5000.0 ; Move to side a little
G1 X0.4 Y20 Z0.3 F1500.0 E30 ; Draw the second line
G92 E0 ; Reset Extruder
G1 Z2.0 F3000 ; Move Z Axis up little to prevent scratching of Heat Bed
G1 X5 Y20 Z0.3 F5000.0 ; Move over to prevent blob squish
G92 E0
G92 E0
G1 F1500 E-6.5
;LAYER_COUNT:116
;LAYER:3
M106 S255
;MESH:print_core_test.stl
G0 F9000 X55.341 Y162.353 Z0.6
;TYPE:FILL
G1 F1500 E0
G1 F600 X55.528 Y162.303 E0.00386
G0 F9000 X55.457 Y162.373
G0 X57.624 Y164.54
G0 X57.694 Y164.47
G1 F600 X57.645 Y164.655 E0.00768
G1 F1500 E-6.49232
;MESH:NONMESH
G0 F300 X57.645 Y164.655 Z0.72
G0 F9000 X57.675 Y164.591
G0 X58.209 Y164.988
G0 X58.749 Y165.407
G0 X64.994 Y165.809
G0 X163.712 Y162.643
G0 X164.285 Y162.983
G0 X163.517 Y162.797
;TIME_ELAPSED:6.189387
;LAYER:4
;TYPE:FILL
;MESH:print_core_test.stl
G1 F1500 E0.00768
G1 F600 X163.859 Y163.139 E0.01733
G0 F9000 X163.703 Y162.611
G1 F600 X163.452 Y163.545 E0.03663
G0 F9000 X163.393 Y163.486
G1 F1500 E-6.46337
G0 F9000 X163.383 Y163.476
G0 X163.532 Y162.811
G0 X163.048 Y162.327
G0 X57.673 Y56.952
G0 X57.189 Y56.468
G0 X57.202 Y56.482
G1 F1500 E0.03663
G1 F600 X56.859 Y56.14 E0.0463
G0 F9000 X57.388 Y56.294
G1 F600 X56.455 Y56.544 E0.06558
G0 F9000 X56.516 Y56.605
G1 F1500 E-6.43442
G0 F9000 X56.526 Y56.615
G0 X55.011 Y58.669
G0 X54.622 Y59.231
G0 X54.254 Y64.487
G0 X54.194 Y155.443
G0 X54.592 Y160.791
G0 X55.012 Y161.33
G0 X55.89 Y162.345
G0 X55.96 Y162.275
G1 F1500 E0.06558
G1 F600 X55.623 Y162.366 E0.07254
G0 F9000 X55.711 Y162.315
G0 X57.652 Y164.107
G0 X57.722 Y164.038
G1 F600 X57.632 Y164.373 E0.07946
G1 F1500 E-6.42054
;MESH:NONMESH
G0 F300 X57.632 Y164.373 Z0.84
G0 F9000 X57.684 Y164.29
G0 X58.67 Y164.988
G0 X59.21 Y165.407
G0 X64.557 Y165.806
G0 X155.506 Y165.753
G0 X160.77 Y165.379
G0 X161.331 Y164.989
G0 X163.647 Y162.808
G0 X163.279 Y162.44
;TIME_ELAPSED:12.367632
;LAYER:5
;TYPE:FILL
;MESH:print_core_test.stl
G1 F1500 E0.07946
G1 F600 X163.778 Y162.94 E0.09356
G0 F9000 X163.434 Y163.289
G1 F600 X163.802 Y161.917 E0.12191
G0 F9000 X163.985 Y162.11
G1 F1500 E-6.37809
G0 F9000 X164.991 Y160.738
G0 X165.323 Y160.141
G0 X165.754 Y156.258
G0 X165.765 Y63.742
G0 X165.324 Y59.858
G0 X164.991 Y59.262
G0 X164.539 Y58.678
G0 X164.468 Y58.748
G1 F1500 E0.12191
G1 F600 X164.723 Y58.679 E0.12718
G0 F9000 X164.637 Y58.73
G0 X161.32 Y55.459
G0 X161.25 Y55.528
G1 F600 X161.318 Y55.275 E0.13241
G1 F1500 E-6.36759
G0 F9000 X161.265 Y55.359
G0 X160.738 Y55.009
G0 X160.141 Y54.677
G0 X156.258 Y54.235
G0 X63.742 Y54.246
G0 X59.866 Y54.688
G0 X59.262 Y55.009
G0 X58.012 Y56.127
G0 X58.081 Y56.196
G1 F1500 E0.13241
G1 F600 X56.711 Y56.563 E0.16071
G0 F9000 X57.059 Y56.221
G1 F600 X57.558 Y56.719 E0.17478
G0 F9000 X57.338 Y56.508
G1 F1500 E-6.32522
G0 F9000 X55.009 Y59.262
G0 X54.677 Y59.859
G0 X54.246 Y63.742
G0 X54.235 Y156.258
G0 X54.676 Y160.142
G0 X55.009 Y160.738
G0 X56.427 Y162.288
G0 X56.498 Y162.218
G1 F1500 E0.17478
G1 F600 X55.904 Y162.377 E0.18705
G0 F9000 X55.991 Y162.326
G0 X57.709 Y163.57
G0 X57.779 Y163.5
G1 F600 X57.621 Y164.092 E0.19928
G0 F9000 X57.645 Y163.93
G1 F1500 E-6.30072
;MESH:NONMESH
G0 F300 X57.645 Y163.93 Z1.68
G0 F9000 X55.009 Y160.738
G0 X54.676 Y160.142
G0 X54.235 Y156.258
G0 X54.246 Y63.742
G0 X54.677 Y59.859
G0 X55.009 Y59.262
G0 X57.909 Y56.23
G0 X58.512 Y56.833
;TIME_ELAPSED:20.578471
;LAYER:12
;TYPE:FILL
;MESH:print_core_test.stl
G1 F1500 E0.19928
G1 F3000 X163.166 Y161.487 E3.15284
G0 F9000 X163.389 Y161.161
G1 F3000 X164.225 Y158.042 E3.21728
G0 F9000 X164.152 Y158.834
G1 F3000 X150.409 Y162.516 E3.50121
G0 F9000 X150.587 Y162.575
G1 F3000 X157.736 Y135.893 E4.05246
G0 F9000 X157.687 Y135.72
G1 F3000 X57.808 Y162.482 E6.11596
G0 F9000 X57.516 Y162.188
G1 F3000 X84.277 Y62.312 E8.1794
G0 F9000 X84.104 Y62.261
G1 F3000 X57.421 Y69.411 E8.73068
G0 F9000 X57.482 Y69.585
G1 F3000 X61.164 Y55.846 E9.01453
G0 F9000 X61.958 Y55.772
G1 F3000 X58.845 Y56.606 E9.07884
G0 F9000 X58.886 Y56.699
G0 X55.888 Y62.591
G0 X55.787 Y62.593
G1 F3000 X157.404 Y164.211 E11.94671
G0 F9000 X157.406 Y164.113
G0 X156.391 Y164.039
G0 X156.38 Y164.138
G1 F3000 X161.113 Y146.474 E12.31165
G0 F9000 X161.363 Y147.158
G1 F3000 X128.635 Y155.927 E12.98781
G0 F9000 X128.656 Y155.831
G0 X127.604 Y155.597
G0 X127.584 Y155.693
G1 F3000 X154.209 Y56.329 E15.04068
G0 F9000 X154.232 Y56.429
G0 X152.031 Y57.076
G0 X151.998 Y56.981
G1 F3000 X163.018 Y68.001 E15.35168
G0 F9000 X162.926 Y67.968
G0 X163.573 Y65.766
G0 X163.668 Y65.789
G1 F3000 X64.305 Y92.413 E17.40453
G0 F9000 X64.403 Y92.393
G0 X64.169 Y91.338
G0 X64.071 Y91.359
G1 F3000 X72.84 Y58.635 E18.08061
G0 F9000 X73.523 Y58.885
G1 F3000 X55.861 Y63.617 E18.44551
G0 F9000 X55.962 Y63.607
G0 X59.33 Y74.495
G0 X59.235 Y74.527
G1 F3000 X145.47 Y160.762 E20.87924
G0 F9000 X144.912 Y160.571
G1 F3000 X154.862 Y123.439 E21.6464
G0 F9000 X154.967 Y124.025
G1 F3000 X57.587 Y150.118 E23.65827
G0 F9000 X57.808 Y149.468
G1 F3000 X70.531 Y162.19 E24.01733
G0 F9000 X69.879 Y162.412
G1 F3000 X95.973 Y65.03 E26.02925
G0 F9000 X96.558 Y65.136
G1 F3000 X59.425 Y75.086 E26.79642
G0 F9000 X59.522 Y75.054
G0 X61.071 Y79.699
G0 X60.976 Y79.728
G1 F3000 X67.151 Y56.683 E27.27253
G0 F9000 X66.709 Y56.545
G1 F3000 X163.453 Y153.289 E30.00286
G0 F9000 X163.315 Y152.846
G1 F3000 X140.267 Y159.022 E30.47903
G0 F9000 X140.297 Y158.928
G0 X139.232 Y158.603
G0 X139.203 Y158.696
G1 F3000 X153.802 Y104.211 E31.60469
G0 F9000 X153.704 Y104.201
G0 X153.574 Y105.73
G0 X153.671 Y105.737
G1 F3000 X63.795 Y129.819 E33.46154
G0 F9000 X63.762 Y129.966
G1 F3000 X90.032 Y156.235 E34.20292
G0 F9000 X90.177 Y156.205
G1 F3000 X114.26 Y66.326 E36.05982
G0 F9000 X114.267 Y66.427
G0 X115.795 Y66.296
G0 X115.785 Y66.196
G1 F3000 X61.3 Y80.795 E37.18549
G0 F9000 X61.397 Y80.766
G0 X63.035 Y86.542
G0 X62.937 Y86.568
G1 F3000 X163.603 Y59.594 E39.26525
G0 F9000 X163.909 Y60.407
G1 F3000 X159.593 Y56.091 E39.38706
G0 F9000 X160.404 Y56.393
G1 F3000 X133.43 Y157.06 E41.46685
G0 F9000 X133.228 Y157.005
G1 F3000 X62.993 Y86.77 E43.44903
G0 F9000 X63.09 Y86.744
G0 X65.409 Y97.556
G0 X65.31 Y97.572
G1 F3000 X122.425 Y154.688 E45.06095
G0 F9000 X121.675 Y154.566
G1 F3000 X147.403 Y58.545 E47.04475
G0 F9000 X147.437 Y58.641
G0 X145.723 Y59.255
G0 X145.691 Y59.16
G1 F3000 X160.839 Y74.307 E47.47224
G0 F9000 X160.746 Y74.275
G0 X161.361 Y72.56
G0 X161.452 Y72.594
G1 F3000 X65.432 Y98.323 E49.45603
G0 F9000 X65.531 Y98.307
G0 X66.313 Y104.316
G0 X66.213 Y104.325
G1 F3000 X159.123 Y79.43 E51.37555
G0 F9000 X159.03 Y79.399
G0 X158.639 Y80.659
G0 X158.733 Y80.687
G1 F3000 X139.312 Y61.266 E51.92365
G0 F9000 X139.34 Y61.362
G0 X140.599 Y60.971
G0 X140.568 Y60.874
G1 F3000 X115.672 Y153.785 E53.8432
G0 F9000 X115.681 Y153.687
G0 X113.968 Y153.55
G0 X113.961 Y153.648
G1 F3000 X159.412 Y141.469 E54.78223
G0 F9000 X159.319 Y141.5
G0 X158.978 Y140.452
G0 X159.072 Y140.423
G1 F3000 X79.576 Y60.927 E57.02577
G0 F9000 X79.546 Y61.021
G0 X78.497 Y60.679
G0 X78.528 Y60.586
G1 F3000 X66.351 Y106.032 E57.96469
G0 F9000 X66.451 Y106.025
G0 X66.525 Y107.168
G0 X66.424 Y107.171
G1 F3000 X112.828 Y153.575 E59.27431
G0 F9000 X112.831 Y153.477
G0 X109.523 Y153.452
G0 X109.523 Y153.552
G1 F3000 X133.834 Y62.824 E61.14876
G0 F9000 X133.86 Y62.922
G0 X132.711 Y63.225
G0 X132.689 Y63.128
G1 F3000 X156.872 Y87.311 E61.83126
G0 F9000 X156.776 Y87.288
G0 X157.079 Y86.138
G0 X157.173 Y86.164
G1 F3000 X66.447 Y110.474 E63.70566
G0 F9000 X66.547 Y110.476
G0 X66.329 Y115.473
G0 X66.229 Y115.462
G1 F3000 X104.536 Y153.769 E64.78677
G0 F9000 X104.527 Y153.671
G0 X103.21 Y153.801
G0 X103.218 Y153.9
G1 F3000 X127.205 Y64.378 E66.63629
G0 F9000 X127.227 Y64.478
G0 X125.777 Y64.779
G0 X125.757 Y64.681
G1 F3000 X155.318 Y94.242 E67.47057
G0 F9000 X155.222 Y94.222
G0 X155.524 Y92.77
G0 X155.619 Y92.792
G1 F3000 X66.099 Y116.779 E69.32006
G0 F9000 X66.199 Y116.789
G0 X65.323 Y122.958
G0 X65.224 Y122.942
G1 F3000 X97.056 Y154.774 E70.21843
G0 F9000 X96.758 Y154.826
G1 F3000 X120.67 Y65.587 E72.06211
G0 F9000 X120.683 Y65.689
G0 X118.495 Y65.993
G0 X118.484 Y65.893
G1 F3000 X154.106 Y101.515 E73.06744
G0 F9000 X154.008 Y101.504
G0 X154.313 Y99.314
G0 X154.409 Y99.328
G1 F3000 X65.173 Y123.239 E74.91106
G0 F9000 X65.27 Y123.256
G0 X63.646 Y130.618
G0 X62.183 Y136.516
G0 X62.086 Y136.489
G1 F3000 X153.544 Y111.983 E76.80059
G0 F9000 X153.445 Y111.985
G0 X153.454 Y109.447
G0 X153.553 Y109.448
G1 F3000 X110.551 Y66.446 E78.0142
G0 F9000 X110.552 Y66.547
G0 X108.011 Y66.554
G0 X108.015 Y66.453
G1 F3000 X83.508 Y157.913 E79.90377
G0 F9000 X83.285 Y157.974
G1 F3000 X62.024 Y136.713 E80.5038
G0 F9000 X62.12 Y136.74
G0 X60.1 Y143.212
G0 X60.005 Y143.179
G1 F3000 X76.819 Y159.993 E80.97833
G0 F9000 X76.73 Y160.025
G1 F3000 X101.937 Y65.951 E82.9219
G0 F9000 X101.519 Y65.899
G1 F3000 X154.1 Y118.48 E84.40585
G0 F9000 X154.045 Y118.06
G1 F3000 X59.975 Y143.266 E86.34934
G0 F9000 X60.07 Y143.299
G0 X56.07 Y156.135
G0 X55.971 Y156.115
G1 F3000 X63.882 Y164.027 E86.57262
G0 F9000 X63.198 Y164.164
G1 F3000 X90.094 Y63.787 E88.64642
G0 F9000 X90.072 Y63.885
G0 X91.142 Y64.124
G0 X91.163 Y64.028
G1 F3000 X155.97 Y128.836 E90.47543
G0 F9000 X155.874 Y128.856
G0 X156.113 Y129.924
G0 X156.209 Y129.904
G1 F3000 X55.837 Y156.799 E92.54912
G0 F9000 X56.228 Y156.876
G1 F1500 E86.04912
;MESH:NONMESH
G0 F300 X56.228 Y156.876 Z1.8
G0 F9000 X63.038 Y133.217
G0 X64.466 Y127.008
G0 X65.255 Y123.006
G0 X65.996 Y117.961
G0 X66.362 Y114.325
G0 X66.456 Y113.001
G0 X66.51 Y108.471
G0 X66.318 Y104.997
G0 X65.872 Y100.995
G0 X58.719 Y56.92
;TIME_ELAPSED:127.401817
;LAYER:13
;TYPE:FILL
;MESH:print_core_test.stl
G1 F1500 E92.54912
G1 F3000 X163.078 Y161.279 E95.49436
G0 F9000 X163.473 Y160.521
G1 F3000 X164.032 Y158.433 E95.53749
G0 F9000 X163.964 Y158.972
G1 F3000 X150.738 Y162.516 E95.81074
G0 F9000 X150.534 Y162.446
G1 F3000 X157.641 Y135.92 E96.35877
G0 F9000 X157.615 Y135.827
G1 F3000 X58.118 Y162.487 E98.41438
G0 F9000 X57.511 Y161.878
G1 F3000 X84.17 Y62.383 E100.46995
G0 F9000 X84.078 Y62.356
G1 F3000 X57.551 Y69.464 E101.018
G0 F9000 X57.482 Y69.257
G1 F3000 X61.025 Y56.034 E101.29119
G0 F9000 X61.563 Y55.966
G1 F3000 X59.475 Y56.525 E101.33432
G0 F9000 X59.516 Y56.617
G0 X56.038 Y62.621
G0 X55.937 Y62.623
G1 F3000 X157.375 Y164.062 E104.19714
G0 F9000 X157.377 Y163.964
G0 X156.343 Y163.886
G0 X156.333 Y163.983
G1 F3000 X161.015 Y146.51 E104.55813
G0 F9000 X161.292 Y147.265
G1 F3000 X129.02 Y155.912 E105.22487
G0 F9000 X129.041 Y155.816
G0 X127.547 Y155.483
G0 X127.527 Y155.578
G1 F3000 X154.077 Y56.492 E107.27199
G0 F9000 X154.101 Y56.591
G0 X152.207 Y57.138
G0 X152.179 Y57.043
G1 F3000 X162.957 Y67.82 E107.57616
G0 F9000 X162.863 Y67.791
G0 X163.411 Y65.896
G0 X163.505 Y65.92
G1 F3000 X64.42 Y92.47 E109.62326
G0 F9000 X64.519 Y92.45
G0 X64.184 Y90.954
G0 X64.086 Y90.975
G1 F3000 X72.732 Y58.707 E110.28992
G0 F9000 X73.488 Y58.982
G1 F3000 X56.015 Y63.664 E110.65091
G0 F9000 X56.115 Y63.654
G0 X59.424 Y74.469
G0 X59.329 Y74.501
G1 F3000 X145.497 Y160.668 E113.08274
G0 F9000 X144.857 Y160.45
G1 F3000 X154.769 Y123.458 E113.847
G0 F9000 X154.89 Y124.134
G1 F3000 X57.678 Y150.182 E115.85541
G0 F9000 X57.921 Y149.461
G1 F3000 X70.537 Y162.076 E116.21144
G0 F9000 X69.815 Y162.322
G1 F3000 X95.864 Y65.107 E118.21991
G0 F9000 X96.539 Y65.229
G1 F3000 X59.548 Y75.141 E118.98415
G0 F9000 X59.643 Y75.109
G0 X61.072 Y79.369
G0 X60.976 Y79.399
G1 F3000 X67.038 Y56.775 E119.45156
G0 F9000 X67.069 Y56.785
G1 F3000 X163.214 Y152.93 E122.16498
G0 F9000 X163.224 Y152.959
G1 F3000 X140.596 Y159.022 E122.63248
G0 F9000 X140.626 Y158.928
G0 X139.175 Y158.485
G0 X139.146 Y158.579
G1 F3000 X153.694 Y104.287 E123.75415
G0 F9000 X153.597 Y104.277
G0 X153.464 Y105.849
G0 X153.56 Y105.855
G1 F3000 X63.881 Y129.884 E125.60693
G0 F9000 X63.865 Y129.949
G1 F3000 X90.05 Y156.133 E126.34591
G0 F9000 X90.112 Y156.119
G1 F3000 X114.143 Y66.436 E128.19877
G0 F9000 X114.15 Y66.537
G0 X115.716 Y66.405
G0 X115.706 Y66.305
G1 F3000 X61.418 Y80.851 E129.32036
G0 F9000 X61.515 Y80.822
G0 X63.152 Y86.6
G0 X63.054 Y86.624
G1 F3000 X163.477 Y59.716 E131.3951
G0 F9000 X163.561 Y59.939
G1 F3000 X160.061 Y56.439 E131.49388
G0 F9000 X160.281 Y56.521
G1 F3000 X133.373 Y156.944 E133.56862
G0 F9000 X133.256 Y156.913
G1 F3000 X63.085 Y86.742 E135.549
G0 F9000 X63.182 Y86.718
G0 X63.575 Y88.496
G0 X65.503 Y97.53
G0 X65.404 Y97.546
G1 F3000 X122.451 Y154.594 E137.159
G0 F9000 X121.615 Y154.459
G1 F3000 X147.273 Y58.704 E139.13731
G0 F9000 X147.307 Y58.799
G0 X145.889 Y59.301
G0 X145.857 Y59.206
G1 F3000 X160.793 Y74.141 E139.55882
G0 F9000 X160.7 Y74.109
G0 X161.202 Y72.691
G0 X161.293 Y72.725
G1 F3000 X65.54 Y98.382 E141.53708
G0 F9000 X65.639 Y98.366
G0 X66.419 Y104.376
G0 X66.319 Y104.385
G1 F3000 X158.973 Y79.558 E143.45132
G0 F9000 X158.879 Y79.53
G0 X158.59 Y80.489
G0 X158.683 Y80.517
G1 F3000 X139.481 Y61.315 E143.99325
G0 F9000 X139.509 Y61.411
G0 X140.467 Y61.122
G0 X140.439 Y61.025
G1 F3000 X115.613 Y153.68 E145.9075
G0 F9000 X115.623 Y153.581
G0 X114.522 Y153.489
G0 X114.515 Y153.587
G1 F3000 X159.344 Y141.575 E146.83367
G0 F9000 X159.249 Y141.606
G0 X158.774 Y140.127
G0 X158.869 Y140.099
G1 F3000 X79.9 Y61.13 E149.06234
G0 F9000 X79.87 Y61.225
G0 X78.39 Y60.749
G0 X78.422 Y60.655
G1 F3000 X66.412 Y105.476 E149.98835
G0 F9000 X66.512 Y105.469
G0 X66.624 Y107.148
G0 X66.523 Y107.151
G1 F3000 X112.847 Y153.474 E151.2957
G0 F9000 X112.85 Y153.377
G0 X109.463 Y153.349
G0 X109.463 Y153.448
G1 F3000 X133.708 Y62.965 E153.16508
G0 F9000 X132.866 Y63.184
G1 F3000 X156.815 Y87.133 E153.84098
G0 F9000 X157.032 Y86.29
G1 F3000 X66.55 Y110.534 E155.71034
G0 F9000 X66.65 Y110.536
G0 X66.431 Y115.456
G0 X66.332 Y115.445
G1 F3000 X104.554 Y153.667 E156.78904
G0 F9000 X104.545 Y153.569
G0 X103.147 Y153.707
G0 X103.155 Y153.806
G1 F3000 X127.082 Y64.51 E158.63391
G0 F9000 X127.104 Y64.609
G0 X125.965 Y64.847
G0 X125.945 Y64.749
G1 F3000 X155.25 Y94.054 E159.46096
G0 F9000 X155.154 Y94.034
G0 X155.393 Y92.893
G0 X155.488 Y92.915
G1 F3000 X66.194 Y116.841 E161.30577
G0 F9000 X66.293 Y116.851
G0 X65.424 Y122.94
G0 X65.326 Y122.924
G1 F3000 X97.075 Y154.673 E162.2018
G0 F9000 X96.693 Y154.743
G1 F3000 X120.551 Y65.703 E164.04137
G0 F9000 X120.564 Y65.804
G0 X118.691 Y66.069
G0 X118.68 Y65.969
G1 F3000 X154.03 Y101.319 E165.03902
G0 F9000 X153.932 Y101.308
G0 X154.198 Y99.433
G0 X154.295 Y99.447
G1 F3000 X65.257 Y123.304 E166.87855
G0 F9000 X65.354 Y123.321
G0 X63.727 Y130.697
G0 X62.268 Y136.581
G0 X62.172 Y136.554
G1 F3000 X153.446 Y112.097 E168.76428
G0 F9000 X153.349 Y112.099
G0 X153.353 Y109.225
G0 X153.452 Y109.226
G1 F3000 X110.773 Y66.547 E169.96877
G0 F9000 X110.774 Y66.648
G0 X107.897 Y66.651
G0 X107.901 Y66.55
G1 F3000 X83.443 Y157.827 E171.85456
G0 F9000 X83.298 Y157.867
G1 F3000 X62.131 Y136.7 E172.45194
G0 F9000 X62.227 Y136.727
G0 X60.209 Y143.202
G0 X60.115 Y143.169
G1 F3000 X76.829 Y159.883 E172.92364
G0 F9000 X76.665 Y159.942
G1 F3000 X101.827 Y66.035 E174.86377
G0 F9000 X101.769 Y66.029
G1 F3000 X153.968 Y118.228 E176.33693
G0 F9000 X153.961 Y118.171
G1 F3000 X60.058 Y143.332 E178.27697
G0 F9000 X60.153 Y143.365
G0 X56.214 Y156.16
G0 X56.115 Y156.14
G1 F3000 X63.858 Y163.882 E178.49548
G0 F9000 X63.147 Y164.024
G1 F3000 X89.985 Y63.864 E180.5648
G0 F9000 X89.963 Y63.961
G0 X91.426 Y64.289
G0 X91.447 Y64.193
G1 F3000 X155.806 Y128.551 E182.38113
G0 F9000 X155.709 Y128.571
G0 X156.036 Y130.032
G0 X156.132 Y130.012
G1 F3000 X55.976 Y156.849 E184.45036
G0 F9000 X56.367 Y156.926
G1 F1500 E177.95036
;MESH:NONMESH
G0 F300 X56.367 Y156.926 Z1.92
G0 F9000 X63.19 Y133.009
