;FLAVOR:Marlin
;TIME:11689
;Filament used: 9.12536m
;Layer height: 0.16
;MINX:36.105
;MINY:36.105
;MINZ:0.2
;MAXX:183.896
;MAXY:183.894
;MAXZ:9.68
;Generated with Cura_SteamEngine 4.8.0
M140 S45
M105
M190 S45
M104 S200
M105
M109 S200
M82 ;absolute extrusion mode
; Ender 3 Custom Start G-code
G92 E0 ; Reset Extruder
G28 ; Home all axes
G1 Z2.0 F3000 ; Move Z Axis up little to prevent scratching of Heat Bed
G1 X0.1 Y20 Z0.3 F5000.0 ; Move to start position
G1 X0.1 Y200.0 Z0.3 F1500.0 E15 ; Draw the first line
G1 X0.4 Y200.0 Z0.3 F5000.0 ; Move to side a little
G1 X0.4 Y20 Z0.3 F1500.0 E30 ; Draw the second line
G92 E0 ; Reset Extruder
G1 Z2.0 F3000 ; Move Z Axis up little to prevent scratching of Heat Bed
G1 X5 Y20 Z0.3 F5000.0 ; Move over to prevent blob squish
G92 E0
G92 E0
G1 F1500 E-6.5
;LAYER_COUNT:81
;LAYER:0
M107
;MESH:print_core_test.stl
G0 F6000 X40.463 Y183.506 Z0.2
;TYPE:FILL
G1 F1500 E0
G1 F600 X40.402 Y183.735 E0.00788
G1 F1500 E-6.49212
G0 F6000 X40.404 Y183.637
G0 X39.142 Y183.244
G0 X38.499 Y183.013
G0 X36.988 Y181.5
G0 X36.756 Y180.858
G0 X36.394 Y179.552
G0 X36.492 Y179.534
G1 F1500 E0.00788
G1 F600 X36.265 Y179.595 E0.0157
G1 F1500 E-6.4843
G0 F6000 X36.365 Y179.594
G0 X36.256 Y178.462
G0 X36.927 Y178.327
G0 X178.333 Y36.929
G0 X178.467 Y36.257
G0 X179.277 Y36.357
G0 X179.257 Y36.437
G1 F1500 E0.0157
G1 F600 X179.305 Y36.257 E0.0219
G1 F1500 E-6.4781
G0 F6000 X179.304 Y36.345
G0 X180.858 Y36.756
G0 X181.501 Y36.987
G0 X183.012 Y38.5
G0 X183.244 Y39.142
G0 X183.643 Y40.722
G0 X183.563 Y40.74
G1 F1500 E0.0219
G1 F600 X183.741 Y40.692 E0.02803
G1 F1500 E-6.47197
;MESH:NONMESH
G0 F300 X183.741 Y40.692 Z0.32
G0 F6000 X183.655 Y40.692
G0 X183.743 Y41.534
G0 X183.072 Y41.669
G0 X36.927 Y178.327
G0 X36.256 Y178.462
G0 X36.354 Y179.155
G0 X37.461 Y178.926
;TIME_ELAPSED:12.105093
;LAYER:1
M106 S85
;TYPE:FILL
;MESH:print_core_test.stl
G1 F1500 E0.02803
G1 F600 X36.982 Y180.714 E0.06497
G0 F7500 X37.071 Y180.667
G0 X36.672 Y179.6
G0 X36.572 Y179.601
G1 F600 X37.806 Y179.27 E0.09046
G0 F7500 X37.735 Y179.34
G0 X39.329 Y182.929
G0 X39.282 Y183.016
G1 F600 X41.073 Y182.536 E0.12747
G0 F7500 X40.727 Y182.193
G1 F600 X40.396 Y183.428 E0.15298
G0 F7500 X40.405 Y183.029
G1 F1500 E-6.34702
G0 F7500 X36.424 Y177.897
G0 X36.105 Y177.293
G0 X36.481 Y43.397
G0 X36.467 Y42.713
G0 X36.471 Y41.836
G0 X36.504 Y41.841
G1 F1500 E0.15298
G1 F600 X36.422 Y41.759 E0.1553
G1 F1500 E-6.3447
G0 F7500 X36.459 Y41.756
G0 X36.551 Y40.245
G0 X37.235 Y40.272
G0 X177.293 Y36.105
G0 X177.897 Y36.424
G0 X178.204 Y36.578
G0 X178.222 Y36.481
G1 F1500 E0.1553
G1 F600 X183.518 Y41.777 E0.30476
G0 F7500 X183.438 Y40.861
G1 F600 X182.561 Y41.097 E0.32289
G0 F7500 X182.167 Y40.703
G1 F600 X182.703 Y38.703 E0.36421
G0 F7500 X182.616 Y38.749
G0 X181.249 Y37.383
G0 X181.297 Y37.294
G1 F600 X179.294 Y37.831 E0.40559
G0 F7500 X178.901 Y37.436
G1 F600 X179.136 Y36.56 E0.42369
G0 F7500 X179.126 Y36.96
G1 F1500 E-6.07631
G0 F7500 X183.576 Y42.103
G0 X183.896 Y42.706
G0 X179.726 Y182.766
G0 X179.754 Y183.449
G0 X178.162 Y183.529
G0 X178.158 Y183.495
G1 F1500 E0.42369
G1 F600 X178.239 Y183.576 E0.42597
G1 F1500 E-6.07403
;MESH:NONMESH
G0 F300 X178.239 Y183.576 Z0.44
G0 F7500 X178.241 Y183.542
G0 X177.579 Y183.54
G0 X176.602 Y183.521
G0 X42.708 Y183.894
G0 X42.103 Y183.576
G0 X37.248 Y178.853
G0 X37.446 Y178.656
;TIME_ELAPSED:23.406490
;LAYER:2
M106 S170
;TYPE:FILL
;MESH:print_core_test.stl
G1 F1500 E0.42597
G1 F600 X37.026 Y180.224 E0.45837
G0 F9000 X36.879 Y179.606
G1 F600 X38.077 Y179.285 E0.48312
G0 F9000 X38.006 Y179.356
G0 X40.641 Y181.991
G0 X40.712 Y181.921
G1 F600 X40.391 Y183.12 E0.50789
G0 F9000 X39.773 Y182.972
G1 F600 X41.343 Y182.551 E0.54033
G0 F9000 X41.063 Y182.739
G1 F1500 E-5.95967
G0 F9000 X36.679 Y177.897
G0 X36.36 Y177.293
G0 X40.31 Y53.461
G0 X40.905 Y53.126
G0 X39.526 Y50.52
G0 X39.52 Y50.524
G1 F1500 E0.54033
G1 F600 X39.625 Y50.496 E0.5425
G0 F9000 X39.629 Y50.502
G1 F600 X39.385 Y50.259 E0.54937
G0 F9000 X38.949 Y49.408
G1 F600 X38.997 Y49.228 E0.55309
G1 F1500 E-5.94691
G0 F9000 X38.977 Y49.239
G0 X37.951 Y47.116
G0 X37.672 Y46.492
G0 X36.757 Y43.675
G0 X36.745 Y42.991
G0 X36.727 Y42.359
G0 X36.692 Y42.377
G1 F1500 E0.55309
G1 F600 X36.793 Y42 E0.56087
G0 F9000 X36.793 Y42.01
G1 F600 X36.674 Y41.891 E0.56423
G1 F1500 E-5.93577
G0 F9000 X36.7 Y41.89
G0 X36.885 Y40.053
G0 X36.977 Y39.373
G0 X40.288 Y37.539
G0 X40.256 Y36.856
G0 X42.318 Y36.736
G0 X42.333 Y36.776
G1 F1500 E0.56423
G1 F600 X42.357 Y36.69 E0.56602
G1 F1500 E-5.93398
G0 F9000 X42.339 Y36.727
G0 X42.991 Y36.745
G0 X43.676 Y36.756
G0 X46.491 Y37.673
G0 X47.116 Y37.951
G0 X49.949 Y39.244
G0 X49.958 Y39.23
G1 F1500 E0.56602
G1 F600 X49.928 Y39.343 E0.56835
G0 F9000 X50.071 Y39.415
G1 F600 X50.233 Y39.372 E0.57169
G0 F9000 X50.188 Y39.459
G0 X52.05 Y40.34
G0 X52.065 Y40.312
G1 F600 X52.243 Y40.49 E0.57672
G1 F1500 E-5.92328
G0 F9000 X52.255 Y40.464
G0 X53.124 Y40.904
G0 X53.458 Y40.308
G0 X177.292 Y36.361
G0 X177.897 Y36.679
G0 X178.664 Y36.92
G0 X178.683 Y36.822
G1 F1500 E0.57672
G1 F600 X183.177 Y41.316 E0.70355
G0 F9000 X183.135 Y41.031
G1 F600 X182.428 Y41.22 E0.71815
G0 F9000 X182.044 Y40.834
G1 F600 X182.542 Y38.975 E0.75656
G0 F9000 X182.455 Y39.021
G0 X180.975 Y37.543
G0 X181.023 Y37.455
G1 F600 X179.163 Y37.954 E0.79499
G0 F9000 X178.778 Y37.568
G1 F600 X178.967 Y36.862 E0.80957
G0 F9000 X178.997 Y37.223
G1 F1500 E-5.69043
G0 F9000 X183.321 Y42.103
G0 X183.64 Y42.707
G0 X179.691 Y166.541
G0 X179.096 Y166.876
G0 X179.534 Y167.741
G0 X179.508 Y167.754
G1 F1500 E0.80957
G1 F600 X179.687 Y167.934 E0.81464
G0 F9000 X179.66 Y167.949
G0 X180.538 Y169.808
G0 X180.626 Y169.764
G1 F600 X180.583 Y169.924 E0.81795
G0 F9000 X180.655 Y170.07
G1 F600 X180.768 Y170.039 E0.82028
G1 F1500 E-5.67972
G0 F9000 X180.755 Y170.047
G0 X182.049 Y172.884
G0 X182.328 Y173.508
G0 X182.577 Y177.256
G0 X183.261 Y177.287
G0 X183.264 Y177.679
G0 X183.223 Y177.664
G1 F1500 E0.82028
G1 F600 X183.309 Y177.641 E0.82206
G1 F1500 E-5.67794
G0 F9000 X183.272 Y177.658
G0 X183.144 Y179.744
G0 X182.46 Y179.713
G0 X179.715 Y182.461
G0 X179.747 Y183.143
G0 X177.997 Y183.227
G0 X177.994 Y183.206
G1 F1500 E0.82206
G1 F600 X177.616 Y183.307 E0.82987
G0 F9000 X177.989 Y183.206
G1 F600 X178.107 Y183.324 E0.8332
G1 F1500 E-5.6668
G0 F9000 X178.108 Y183.301
G0 X177.288 Y183.261
G0 X177.256 Y182.578
G0 X173.509 Y182.327
G0 X172.884 Y182.049
G0 X170.758 Y181.022
G0 X170.769 Y181.001
G1 F1500 E0.8332
G1 F600 X170.587 Y181.049 E0.83696
G0 F9000 X169.739 Y180.613
G1 F600 X169.497 Y180.37 E0.8438
G0 F9000 X169.501 Y180.374
G1 F600 X169.473 Y180.476 E0.84591
G1 F1500 E-5.65409
;MESH:NONMESH
G0 F300 X169.473 Y180.476 Z0.56
G0 F9000 X169.477 Y180.472
G0 X166.876 Y179.096
G0 X166.542 Y179.692
G0 X109.446 Y156.902
;TIME_ELAPSED:39.822137
;LAYER:3
M106 S255
;TYPE:FILL
;MESH:print_core_test.stl
G1 F1500 E0.84591
G1 F3000 X109.422 Y156.988 E0.84769
G1 F1500 E-5.65231
G0 F9000 X109.424 Y156.953
G0 X107.668 Y156.972
G0 X107.67 Y157.657
G0 X52.851 Y178.372
G0 X42.577 Y182.592
G0 X42.103 Y183.066
G0 X41.541 Y182.636
G0 X41.612 Y182.566
G1 F1500 E0.84769
G1 F3000 X40.663 Y182.821 E0.8673
G0 F9000 X40.386 Y182.814
G1 F3000 X40.697 Y181.652 E0.89131
G0 F9000 X40.627 Y181.722
G0 X38.276 Y179.371
G0 X38.347 Y179.3
G1 F3000 X37.186 Y179.611 E0.91529
G0 F9000 X37.178 Y179.333
G1 F3000 X37.431 Y178.386 E0.93485
G0 F9000 X37.47 Y178.608
G1 F1500 E-5.56515
G0 F9000 X36.934 Y177.897
G0 X37.408 Y177.423
G0 X40.826 Y169.102
G0 X63.007 Y113.798
G0 X63.018 Y113.113
G0 X63.048 Y110.575
G0 X63.012 Y110.574
G1 F1500 E0.93485
G1 F3000 X63.097 Y110.552 E0.93661
G1 F1500 E-5.56339
G0 F9000 X63.064 Y110.552
G0 X63.028 Y107.659
G0 X62.343 Y107.661
G0 X40.76 Y53.93
G0 X41.355 Y53.595
G0 X39.93 Y50.741
G0 X39.968 Y50.723
G1 F1500 E0.93661
G1 F3000 X39.643 Y50.399 E0.94576
G0 F9000 X39.724 Y50.557
G1 F3000 X39.867 Y50.518 E0.94872
G0 F9000 X39.778 Y50.561
G0 X39.055 Y48.984
G0 X38.964 Y49.027
G1 F3000 X39.024 Y48.802 E0.95337
G1 F1500 E-5.54663
G0 F9000 X38.978 Y48.826
G0 X37.951 Y46.615
G0 X37.673 Y45.991
G0 X37.034 Y43.955
G0 X37.024 Y43.27
G0 X37.03 Y42.172
G0 X37.082 Y42.181
G1 F1500 E0.95337
G1 F3000 X36.927 Y42.025 E0.95776
G0 F9000 X36.962 Y41.044
G1 F3000 X37.183 Y40.219 E0.9748
G1 F1500 E-5.5252
G0 F9000 X37.065 Y40.606
G0 X37.162 Y40.26
G0 X37.846 Y40.295
G0 X40.296 Y37.845
G0 X40.26 Y37.162
G0 X42.157 Y37.028
G0 X42.165 Y37.082
G1 F1500 E0.9748
G1 F3000 X42.205 Y36.931 E0.97792
G1 F1500 E-5.52208
G0 F9000 X42.194 Y36.981
G0 X43.27 Y37.024
G0 X43.956 Y37.033
G0 X45.99 Y37.674
G0 X46.615 Y37.951
G0 X49.81 Y39.41
G0 X49.838 Y39.356
G1 F1500 E0.97792
G1 F3000 X49.796 Y39.511 E0.98112
G0 F9000 X49.878 Y39.554
G1 F3000 X50.106 Y39.493 E0.98583
G0 F9000 X50.06 Y39.582
G0 X52.684 Y40.876
G0 X52.708 Y40.836
G1 F3000 X52.917 Y41.044 E0.99172
G1 F1500 E-5.50828
G0 F9000 X52.925 Y41.013
G0 X53.594 Y41.355
G0 X53.928 Y40.759
G0 X106.213 Y63.005
G0 X106.898 Y63.017
G0 X108.83 Y63.045
G0 X108.827 Y63.013
G1 F1500 E0.99172
G1 F3000 X108.909 Y63.095 E0.99403
G0 F9000 X109.734 Y63.098
G1 F3000 X109.757 Y63.011 E0.99583
G1 F1500 E-5.50417
G0 F9000 X109.756 Y63.048
G0 X112.332 Y63.028
G0 X112.33 Y62.343
G0 X167.149 Y41.628
G0 X177.423 Y37.408
G0 X177.897 Y36.934
G0 X178.726 Y37.631
G0 X178.655 Y37.701
G1 F1500 E0.99583
G1 F3000 X178.815 Y37.103 E1.00818
G0 F9000 X179.146 Y37.166
G1 F3000 X182.833 Y40.853 E1.11224
G0 F9000 X182.895 Y41.182
G1 F3000 X182.296 Y41.342 E1.12461
G0 F9000 X181.921 Y40.966
G1 F3000 X182.382 Y39.248 E1.16011
G0 F9000 X182.295 Y39.294
G0 X180.703 Y37.703
G0 X180.75 Y37.616
G1 F3000 X179.03 Y38.076 E1.19564
G0 F9000 X179.313 Y37.794
G1 F1500 E-5.30436
G0 F9000 X183.066 Y42.103
G0 X182.592 Y42.577
G0 X179.174 Y50.898
G0 X156.994 Y106.202
G0 X156.983 Y106.887
G0 X156.953 Y110.238
G0 X156.987 Y110.24
G1 F1500 E1.19564
G1 F3000 X156.902 Y110.263 E1.1974
G0 F9000 X156.904 Y111.09
G1 F3000 X156.99 Y111.176 E1.19982
G1 F1500 E-5.30018
G0 F9000 X156.957 Y111.172
G0 X156.972 Y112.332
G0 X157.657 Y112.33
G0 X179.241 Y166.072
G0 X178.646 Y166.407
G0 X178.985 Y167.073
G0 X178.953 Y167.081
G1 F1500 E1.19982
G1 F3000 X179.163 Y167.291 E1.20575
G0 F9000 X179.124 Y167.315
G0 X180.417 Y169.936
G0 X180.505 Y169.892
G1 F3000 X180.444 Y170.117 E1.2104
G0 F9000 X180.485 Y170.202
G1 F3000 X180.642 Y170.16 E1.21364
G1 F1500 E-5.28636
G0 F9000 X180.589 Y170.187
G0 X182.049 Y173.385
G0 X182.327 Y174.009
G0 X182.297 Y176.962
G0 X182.981 Y176.997
G0 X182.972 Y177.842
G0 X182.917 Y177.833
G1 F1500 E1.21364
G1 F3000 X183.067 Y177.792 E1.21675
G1 F1500 E-5.28325
G0 F9000 X183.018 Y177.802
G0 X182.838 Y179.74
G0 X182.154 Y179.705
G0 X179.914 Y182.144
G0 X179.949 Y182.808
G0 X179.393 Y182.936
G0 X179.776 Y182.815
G1 F1500 E1.21675
G1 F3000 X178.927 Y183.043 E1.23429
G0 F9000 X177.973 Y183.072
G1 F3000 X177.818 Y182.917 E1.23867
G1 F1500 E-5.26133
G0 F9000 X177.827 Y182.972
G0 X176.998 Y182.981
G0 X176.962 Y182.298
G0 X174.01 Y182.326
G0 X173.385 Y182.049
G0 X171.171 Y181.02
G0 X171.195 Y180.973
G1 F1500 E1.23867
G1 F3000 X170.969 Y181.034 E1.24334
G0 F9000 X171.013 Y180.944
G0 X169.644 Y180.268
G0 X169.599 Y180.354
G1 F3000 X169.276 Y180.031 E1.25245
G0 F9000 X169.479 Y180.131
G1 F3000 X169.441 Y180.273 E1.25539
G1 F1500 E-5.24461
G0 F9000 X169.462 Y180.233
G0 X166.406 Y178.645
G0 X166.707 Y178.031
G0 X112.43 Y117.775
G0 X111.947 Y117.293
G0 X112.083 Y117.181
G1 F1500 E1.25539
G1 F3000 X102.817 Y107.915 E1.51689
G0 F9000 X102.638 Y108.239
G1 F3000 X115.542 Y104.781 E1.78349
G0 F9000 X115.216 Y104.456
G1 F3000 X111.758 Y117.362 E2.05013
G0 F9000 X111.734 Y117.266
G0 X107.724 Y117.04
G0 X107.68 Y117.127
G1 F3000 X111.575 Y102.591 E2.35045
G0 F9000 X111.55 Y102.688
G0 X108.751 Y102.607
G0 X108.726 Y102.51
G1 F3000 X117.489 Y111.273 E2.59776
G0 F9000 X117.394 Y111.248
G0 X116.373 Y112.753
G0 X116.442 Y112.822
G1 F3000 X105.219 Y115.83 E2.82963
G0 F9000 X104.794 Y115.549
G1 F3000 X104.448 Y115.203 E2.83939
G0 F9000 X104.168 Y114.777
G1 F3000 X107.175 Y103.557 E3.0712
G0 F9000 X107.246 Y103.628
G0 X105.716 Y105.158
G0 X105.645 Y105.087
G1 F3000 X114.911 Y114.353 E3.33271
G0 F9000 X114.842 Y114.284
G0 X117.311 Y108.446
G0 X117.405 Y108.423
G1 F3000 X102.869 Y112.318 E3.63302
G0 F9000 X103.228 Y112.14
G1 F1500 E-2.86698
;MESH:NONMESH
G0 F300 X103.228 Y112.14 Z0.68
G0 F9000 X103.87 Y114.288
G0 X103.299 Y114.663
G0 X39.071 Y179.086
G0 X38.587 Y179.57
G0 X37.068 Y178.099
G0 X37.19 Y177.932
;TIME_ELAPSED:66.118373
;LAYER:4
;TYPE:FILL
;MESH:print_core_test.stl
G1 F1500 E3.63302
G1 F1244.2 X42.065 Y182.808 E3.77062
G0 F9000 X41.883 Y182.581
G1 F1244.2 X41.46 Y182.695 E3.77936
G0 F9000 X41.478 Y182.598
G0 X40.382 Y182.409
G0 X40.38 Y182.508
G1 F1244.2 X40.681 Y181.382 E3.80262
G0 F9000 X40.611 Y181.451
G0 X38.546 Y179.386
G0 X38.617 Y179.316
G1 F1244.2 X37.492 Y179.617 E3.82586
G0 F9000 X37.592 Y179.616
G0 X37.402 Y178.517
G0 X37.303 Y178.535
G1 F1244.2 X37.416 Y178.116 E3.83452
G1 F1500 E-2.66548
G0 F9000 X37.346 Y178.186
G0 X39.137 Y179.865
G0 X39.621 Y179.381
G0 X103.759 Y115.694
G0 X104.242 Y115.21
G0 X104.122 Y114.881
G0 X104.039 Y114.933
G1 F1500 E3.83452
G1 F1244.2 X107.307 Y102.736 E4.08651
G0 F9000 X107.036 Y103.007
G1 F1244.2 X109.762 Y102.277 E4.14283
G0 F9000 X109.762 Y102.378
G0 X108.7 Y102.44
G0 X108.678 Y102.342
G1 F1244.2 X117.657 Y111.321 E4.39624
G0 F9000 X117.561 Y111.298
G0 X117.622 Y110.232
G0 X117.721 Y110.233
G1 F1244.2 X116.989 Y112.964 E4.45266
G0 F9000 X117.262 Y112.691
G1 F1244.2 X105.062 Y115.96 E4.70471
G0 F9000 X105.824 Y116.459
G1 F1244.2 X103.539 Y114.174 E4.7692
G0 F9000 X103.623 Y114.12
G0 X102.74 Y112.443
G0 X102.644 Y112.466
G1 F1244.2 X117.593 Y108.461 E5.07805
G0 F9000 X117.498 Y108.484
G0 X115.706 Y104.856
G0 X115.789 Y104.803
G1 F1244.2 X102.417 Y108.386 E5.35431
G0 F9000 X102.624 Y107.602
G1 F1244.2 X112.396 Y117.374 E5.6301
G0 F9000 X111.611 Y117.581
G1 F1244.2 X115.194 Y104.209 E5.90636
G0 F9000 X115.14 Y104.291
G0 X111.512 Y102.5
G0 X111.537 Y102.404
G1 F1244.2 X107.531 Y117.355 E6.21525
G0 F9000 X107.555 Y117.26
G0 X115.247 Y114.568
G0 X115.316 Y114.637
G1 F1244.2 X105.361 Y104.682 E6.4962
G0 F9000 X105.644 Y104.965
G1 F1500 E-0.0038
G0 F9000 X111.042 Y102.297
G0 X111.211 Y101.635
G0 X177.423 Y37.663
G0 X177.897 Y37.189
G0 X178.602 Y37.762
G0 X178.532 Y37.832
G1 F1500 E6.4962
G1 F1244.2 X178.667 Y37.329 E6.5066
G0 F9000 X178.898 Y38.2
G1 F1244.2 X180.479 Y37.776 E6.53926
G0 F9000 X179.592 Y37.492
G1 F1244.2 X182.507 Y40.407 E6.62153
G0 F9000 X182.221 Y39.519
G1 F1244.2 X181.798 Y41.098 E6.65415
G0 F9000 X182.165 Y41.466
G1 F1244.2 X182.669 Y41.33 E6.66457
G0 F9000 X182.472 Y41.208
G1 F1500 E0.16457
;MESH:NONMESH
G0 F300 X182.472 Y41.208 Z0.8
G0 F9000 X177.897 Y37.189
G0 X177.423 Y37.663
G0 X105.223 Y103.731
G0 X105.125 Y104.326
;TIME_ELAPSED:81.087109
;LAYER:5
;TYPE:FILL
;MESH:print_core_test.stl
G1 F1500 E6.66457
G1 F938.8 X115.672 Y114.873 E6.96223
G0 F9000 X115.603 Y114.804
G0 X116.584 Y113.823
G0 X116.653 Y113.892
G1 F938.8 X117.899 Y109.241 E7.05832
G0 F9000 X117.78 Y108.499
G1 F938.8 X102.498 Y112.594 E7.37405
G0 F9000 X102.657 Y113.172
G1 F938.8 X106.815 Y117.33 E7.49139
G0 F9000 X107.404 Y117.5
G1 F938.8 X111.499 Y102.217 E7.80714
G0 F9000 X110.75 Y102.1
G1 F938.8 X106.108 Y103.344 E7.90305
G0 F9000 X106.178 Y103.415
G0 X107.3 Y102.626
G0 X107.275 Y102.528
G1 F938.8 X103.908 Y115.093 E8.16264
G0 F9000 X103.991 Y115.04
G0 X104.958 Y116.007
G0 X104.903 Y116.09
G1 F938.8 X117.47 Y112.723 E8.42227
G0 F9000 X117.376 Y112.698
G0 X117.728 Y111.345
G0 X117.823 Y111.367
G1 F938.8 X108.632 Y102.176 E8.68166
G0 F9000 X108.654 Y102.274
G0 X115.118 Y104.042
G0 X115.173 Y103.959
G1 F938.8 X111.464 Y117.801 E8.96764
G0 F9000 X111.443 Y117.704
G0 X112.611 Y117.398
G0 X112.635 Y117.493
G1 F938.8 X102.505 Y107.362 E9.25354
G0 F9000 X102.601 Y107.388
G0 X102.295 Y108.556
G0 X102.197 Y108.533
G1 F938.8 X116.037 Y104.825 E9.53948
G0 F9000 X115.702 Y105.042
;MESH:NONMESH
G0 F300 X115.702 Y105.042 Z0.92
G0 F9000 X105.256 Y104.337
G0 X105.007 Y104.088
;TIME_ELAPSED:92.251901
;LAYER:6
;TYPE:FILL
;MESH:print_core_test.stl
